; generated by PrusaSlicer 2.3.0+win64 on 2021-04-09 at 16:07:58 UTC


;
;

;
;
; 

; external perimeters extrusion width = 0.45mm
; perimeters extrusion width = 0.45mm
; infill extrusion width = 0.45mm
; solid infill extrusion width = 0.45mm
; top infill extrusion width = 0.40mm
; first layer extrusion width = 0.42mm

M73 P0 R23
M201 X1250 Y1250 Z400 E5000 ; sets maximum accelerations, mm/sec^2
M203 X180 Y180 Z12 E80 ; sets maximum feedrates, mm/sec
M204 P1250 R1250 T1250 ; sets acceleration (P, T) and retract acceleration (R), mm/sec^2
M205 X8.00 Y8.00 Z2.00 E10.00 ; sets the jerk limits, mm/sec
M205 S0 T0 ; sets the minimum extruding and travel feed rate, mm/sec
M107
;TYPE:Custom
M301 P13.54 I0.98 D46.58
G90 ; use absolute coordinates
M83 ; extruder relative mode
M104 S170 ; set extruder temp for bed leveling
M140 S60 ; set bed temp
M109 R170 ; wait for bed leveling temp
M190 S60 ; wait for bed temp
G28 ; home all without mesh bed level
G29 ; mesh bed leveling 
M104 S215 ; set extruder temp
G92 E0.0
G1 Y-2.0 X179 F2400
G1 Z3 F720
M109 S215 ; wait for extruder temp

; intro line
G1 X170 F1000
G1 Z0.2 F720
G1 X110.0 E8.0 F900
M73 P0 R22
G1 X40.0 E10.0 F700
G92 E0.0

M221 S95 ; set flow
G21 ; set units to millimeters
G90 ; use absolute coordinates
M83 ; use relative distances for extrusion
M900 K0.2 ; Filament gcode
;LAYER_CHANGE
;Z:0.2
;HEIGHT:0.2
;BEFORE_LAYER_CHANGE
G92 E0.0
;0.2


M73 P1 R22
G1 E-3.20000 F4200.000
G1 Z0.200 F9000.000
;AFTER_LAYER_CHANGE
;0.2
G1 Z0.400
G1 X32.067 Y78.163
G1 Z0.200
G1 E3.20000 F2400.000
M204 S800
;TYPE:Skirt
;WIDTH:0.42
G1 F1200.000
G1 X147.504 Y78.123 E4.22684
G1 X148.402 Y78.301 E0.03354
G1 X149.167 Y78.805 E0.03354
G1 X149.684 Y79.562 E0.03354
G1 X149.877 Y80.457 E0.03354
G1 X149.867 Y99.717 E0.70522
G1 X149.675 Y100.458 E0.02805
G1 X149.257 Y101.101 E0.02805
G1 X148.654 Y101.578 E0.02819
G1 X147.933 Y101.837 E0.02805
G1 X32.462 Y101.877 E4.22810
M73 P2 R22
G1 X31.665 Y101.726 E0.02970
G1 X30.965 Y101.315 E0.02970
G1 X30.444 Y100.694 E0.02970
G1 X30.163 Y99.933 E0.02970
G1 X30.132 Y80.295 E0.71908
G1 X30.322 Y79.549 E0.02819
G1 X30.740 Y78.902 E0.02819
G1 X31.343 Y78.424 E0.02819
G1 X32.011 Y78.183 E0.02599
M204 S1250
; printing object body990734 id:0 copy 0
G1 E-2.24000 F4200.000
;WIPE_START
G1 F7200.000
G1 X33.656 Y78.182 E-0.91200
;WIPE_END
G1 E-0.04800 F4200.000
G1 Z0.400 F9000.000
G1 X34.041 Y82.041
G1 Z0.200
G1 E3.20000 F2400.000
M204 S800
;TYPE:Perimeter
G1 F1200.000
G1 X51.897 Y82.041 E0.65380
G1 X54.683 Y82.205 E0.10220
G1 X57.387 Y82.685 E0.10055
G1 X60.016 Y83.477 E0.10055
G1 X62.535 Y84.572 E0.10055
G1 X64.996 Y86.004 E0.10427
G1 X66.889 Y87.070 E0.07954
G1 X69.012 Y87.884 E0.08327
G1 X71.232 Y88.379 E0.08327
G1 X73.444 Y88.541 E0.08120
G1 X106.556 Y88.541 E1.21246
G1 X108.768 Y88.379 E0.08120
G1 X110.988 Y87.884 E0.08327
G1 X113.111 Y87.070 E0.08327
G1 X115.004 Y86.004 E0.07954
G1 X117.465 Y84.572 E0.10427
G1 X119.984 Y83.477 E0.10055
G1 X122.613 Y82.685 E0.10055
G1 X125.317 Y82.205 E0.10055
G1 X128.103 Y82.041 E0.10220
G1 X145.959 Y82.041 E0.65380
G1 X145.959 Y97.959 E0.58284
G1 X128.103 Y97.959 E0.65380
G1 X125.317 Y97.795 E0.10220
G1 X122.613 Y97.315 E0.10055
G1 X119.984 Y96.523 E0.10055
G1 X117.465 Y95.428 E0.10055
G1 X115.004 Y93.996 E0.10427
G1 X113.111 Y92.930 E0.07954
G1 X110.988 Y92.116 E0.08327
G1 X108.768 Y91.621 E0.08327
G1 X106.556 Y91.459 E0.08120
G1 X73.444 Y91.459 E1.21246
M73 P3 R22
G1 X71.232 Y91.621 E0.08120
G1 X69.012 Y92.116 E0.08327
G1 X66.889 Y92.930 E0.08327
G1 X64.996 Y93.996 E0.07954
G1 X62.535 Y95.428 E0.10427
G1 X60.016 Y96.523 E0.10055
G1 X57.387 Y97.315 E0.10055
G1 X54.683 Y97.795 E0.10055
G1 X51.897 Y97.959 E0.10220
G1 X34.041 Y97.959 E0.65380
G1 X34.041 Y82.101 E0.58064
M204 S1250
G1 X33.664 Y81.664 F9000.000
M204 S800
G1 F1200.000
G1 X51.908 Y81.664 E0.66801
G1 X54.727 Y81.829 E0.10342
G1 X57.475 Y82.317 E0.10217
G1 X60.146 Y83.123 E0.10217
G1 X62.705 Y84.235 E0.10217
G1 X65.183 Y85.677 E0.10498
G1 X67.050 Y86.727 E0.07843
G1 X69.122 Y87.522 E0.08124
G1 X71.287 Y88.005 E0.08124
G1 X73.457 Y88.164 E0.07968
G1 X106.543 Y88.164 E1.21145
G1 X108.713 Y88.005 E0.07968
G1 X110.878 Y87.522 E0.08124
G1 X112.950 Y86.727 E0.08124
G1 X114.817 Y85.677 E0.07843
G1 X117.295 Y84.235 E0.10498
G1 X119.854 Y83.123 E0.10217
G1 X122.525 Y82.317 E0.10217
G1 X125.273 Y81.829 E0.10217
G1 X128.092 Y81.664 E0.10342
G1 X146.336 Y81.664 E0.66801
G1 X146.336 Y98.336 E0.61045
G1 X128.092 Y98.336 E0.66801
G1 X125.273 Y98.171 E0.10342
G1 X122.525 Y97.683 E0.10217
G1 X119.854 Y96.877 E0.10217
G1 X117.295 Y95.765 E0.10217
G1 X114.817 Y94.323 E0.10498
G1 X112.950 Y93.273 E0.07843
G1 X110.878 Y92.478 E0.08124
G1 X108.713 Y91.995 E0.08124
G1 X106.543 Y91.836 E0.07968
G1 X73.457 Y91.836 E1.21145
M73 P4 R22
G1 X71.287 Y91.995 E0.07968
G1 X69.122 Y92.478 E0.08124
G1 X67.050 Y93.273 E0.08124
G1 X65.183 Y94.323 E0.07843
G1 X62.705 Y95.765 E0.10498
G1 X60.146 Y96.877 E0.10217
G1 X57.475 Y97.683 E0.10217
G1 X54.727 Y98.171 E0.10217
G1 X51.908 Y98.336 E0.10342
G1 X33.664 Y98.336 E0.66801
G1 X33.664 Y81.724 E0.60825
M204 S1250
G1 X33.287 Y81.287 F9000.000
M204 S800
G1 F1200.000
G1 X51.919 Y81.287 E0.68222
G1 X54.772 Y81.454 E0.10463
G1 X57.562 Y81.950 E0.10379
G1 X60.276 Y82.768 E0.10379
G1 X62.876 Y83.898 E0.10379
G1 X65.370 Y85.350 E0.10569
G1 X67.211 Y86.385 E0.07732
G1 X69.231 Y87.160 E0.07922
G1 X71.342 Y87.631 E0.07922
G1 X73.471 Y87.787 E0.07816
G1 X106.529 Y87.787 E1.21044
G1 X108.658 Y87.631 E0.07816
G1 X110.769 Y87.160 E0.07922
G1 X112.789 Y86.385 E0.07922
G1 X114.630 Y85.350 E0.07732
G1 X117.124 Y83.898 E0.10569
G1 X119.724 Y82.768 E0.10379
G1 X122.438 Y81.950 E0.10379
G1 X125.228 Y81.454 E0.10379
G1 X128.081 Y81.287 E0.10463
G1 X146.713 Y81.287 E0.68222
G1 X146.713 Y98.713 E0.63807
G1 X128.081 Y98.713 E0.68222
G1 X125.228 Y98.546 E0.10463
G1 X122.438 Y98.050 E0.10379
G1 X119.724 Y97.232 E0.10379
G1 X117.124 Y96.102 E0.10379
G1 X114.630 Y94.650 E0.10569
G1 X112.789 Y93.615 E0.07732
G1 X110.769 Y92.840 E0.07922
G1 X108.658 Y92.369 E0.07922
G1 X106.529 Y92.213 E0.07816
G1 X73.471 Y92.213 E1.21044
M73 P4 R21
G1 X71.342 Y92.369 E0.07816
G1 X69.231 Y92.840 E0.07922
M73 P5 R21
G1 X67.211 Y93.615 E0.07922
G1 X65.370 Y94.650 E0.07732
G1 X62.876 Y96.102 E0.10569
G1 X60.276 Y97.232 E0.10379
G1 X57.562 Y98.050 E0.10379
G1 X54.772 Y98.546 E0.10379
G1 X51.919 Y98.713 E0.10463
G1 X33.287 Y98.713 E0.68222
G1 X33.287 Y81.347 E0.63587
M204 S1250
G1 X32.910 Y80.910 F9000.000
M204 S800
;TYPE:External perimeter
G1 F1200.000
G1 X51.930 Y80.910 E0.69644
G1 X54.816 Y81.079 E0.10585
G1 X57.650 Y81.582 E0.10541
G1 X60.406 Y82.413 E0.10541
G1 X63.046 Y83.561 E0.10541
G1 X65.558 Y85.023 E0.10640
G1 X67.371 Y86.043 E0.07620
G1 X69.340 Y86.798 E0.07719
G1 X71.397 Y87.257 E0.07719
G1 X73.485 Y87.410 E0.07664
G1 X106.515 Y87.410 E1.20943
G1 X108.603 Y87.257 E0.07664
G1 X110.660 Y86.798 E0.07719
G1 X112.629 Y86.043 E0.07719
G1 X114.442 Y85.023 E0.07620
G1 X116.954 Y83.561 E0.10640
G1 X119.594 Y82.413 E0.10541
G1 X122.350 Y81.582 E0.10541
G1 X125.184 Y81.079 E0.10541
G1 X128.070 Y80.910 E0.10585
G1 X147.090 Y80.910 E0.69644
G1 X147.090 Y99.090 E0.66568
G1 X128.070 Y99.090 E0.69644
G1 X125.184 Y98.921 E0.10585
G1 X122.350 Y98.418 E0.10541
G1 X119.594 Y97.587 E0.10541
G1 X116.954 Y96.439 E0.10541
G1 X114.442 Y94.977 E0.10640
G1 X112.629 Y93.957 E0.07620
G1 X110.660 Y93.202 E0.07719
G1 X108.603 Y92.743 E0.07719
G1 X106.515 Y92.590 E0.07664
G1 X73.485 Y92.590 E1.20943
G1 X71.397 Y92.743 E0.07664
G1 X69.340 Y93.202 E0.07719
M73 P6 R21
G1 X67.371 Y93.957 E0.07719
G1 X65.558 Y94.977 E0.07620
G1 X63.046 Y96.439 E0.10640
G1 X60.406 Y97.587 E0.10541
G1 X57.650 Y98.418 E0.10541
G1 X54.816 Y98.921 E0.10541
G1 X51.930 Y99.090 E0.10585
G1 X32.910 Y99.090 E0.69644
G1 X32.910 Y80.970 E0.66348
M204 S1250
G1 X33.297 Y81.011 F9000.000
G1 E-2.24000 F4200.000
;WIPE_START
G1 F7200.000
G1 X34.556 Y80.965 E-0.91200
;WIPE_END
G1 E-0.04800 F4200.000
G1 Z0.400 F9000.000
G1 X145.846 Y82.917
G1 Z0.200
G1 E3.20000 F2400.000
M204 S800
;TYPE:Solid infill
;WIDTH:0.420018
G1 F1200.000
G1 X145.253 Y82.324 E0.03069
G1 X144.720 Y82.324 E0.01953
G1 X145.676 Y83.280 E0.04952
G1 X145.676 Y83.814 E0.01953
G1 X144.186 Y82.324 E0.07714
G1 X143.653 Y82.324 E0.01953
G1 X145.676 Y84.347 E0.10475
G1 X145.676 Y84.880 E0.01953
G1 X143.120 Y82.324 E0.13237
G1 X142.587 Y82.324 E0.01953
G1 X145.676 Y85.413 E0.15999
G1 X145.676 Y85.947 E0.01953
G1 X142.053 Y82.324 E0.18760
G1 X141.520 Y82.324 E0.01953
G1 X145.676 Y86.480 E0.21522
G1 X145.676 Y87.013 E0.01953
G1 X140.987 Y82.324 E0.24284
G1 X140.453 Y82.324 E0.01953
G1 X145.676 Y87.547 E0.27046
G1 X145.676 Y88.080 E0.01953
G1 X139.920 Y82.324 E0.29807
G1 X139.387 Y82.324 E0.01953
G1 X145.676 Y88.613 E0.32569
G1 X145.676 Y89.147 E0.01953
G1 X138.853 Y82.324 E0.35331
G1 X138.320 Y82.324 E0.01953
G1 X145.676 Y89.680 E0.38092
G1 X145.676 Y90.213 E0.01953
G1 X137.787 Y82.324 E0.40854
G1 X137.254 Y82.324 E0.01953
G1 X145.676 Y90.746 E0.43616
G1 X145.676 Y91.280 E0.01953
G1 X136.720 Y82.324 E0.46378
G1 X136.187 Y82.324 E0.01953
G1 X145.676 Y91.813 E0.49139
G1 X145.676 Y92.346 E0.01953
G1 X135.654 Y82.324 E0.51901
G1 X135.120 Y82.324 E0.01953
G1 X145.676 Y92.880 E0.54663
G1 X145.676 Y93.413 E0.01953
G1 X134.587 Y82.324 E0.57424
G1 X134.054 Y82.324 E0.01953
G1 X145.676 Y93.946 E0.60186
M73 P7 R21
G1 X145.676 Y94.480 E0.01953
G1 X133.520 Y82.324 E0.62948
G1 X132.987 Y82.324 E0.01953
G1 X145.676 Y95.013 E0.65709
G1 X145.676 Y95.546 E0.01953
G1 X132.454 Y82.324 E0.68471
G1 X131.921 Y82.324 E0.01953
G1 X145.676 Y96.079 E0.71233
G1 X145.676 Y96.613 E0.01953
G1 X131.387 Y82.324 E0.73995
G1 X130.854 Y82.324 E0.01953
G1 X145.676 Y97.146 E0.76756
G1 X145.676 Y97.676 E0.01941
G1 X130.321 Y82.324 E0.79509
G1 X129.787 Y82.324 E0.01953
G1 X145.139 Y97.676 E0.79501
G1 X144.606 Y97.676 E0.01953
G1 X129.254 Y82.324 E0.79501
G1 X128.721 Y82.324 E0.01953
G1 X144.073 Y97.676 E0.79501
G1 X143.539 Y97.676 E0.01953
G1 X128.188 Y82.324 E0.79501
G1 X127.680 Y82.349 E0.01862
G1 X143.006 Y97.676 E0.79370
G1 X142.473 Y97.676 E0.01953
G1 X127.176 Y82.379 E0.79217
M73 P8 R21
G1 X126.672 Y82.408 E0.01848
G1 X141.940 Y97.676 E0.79064
G1 X141.406 Y97.676 E0.01953
G1 X126.168 Y82.438 E0.78911
G1 X125.665 Y82.468 E0.01848
G1 X140.873 Y97.676 E0.78758
G1 X140.340 Y97.676 E0.01953
G1 X125.180 Y82.516 E0.78506
G1 X124.727 Y82.597 E0.01684
G1 X139.806 Y97.676 E0.78089
G1 X139.273 Y97.676 E0.01953
G1 X124.274 Y82.677 E0.77673
G1 X123.821 Y82.757 E0.01684
G1 X138.740 Y97.676 E0.77257
G1 X138.206 Y97.676 E0.01953
G1 X123.368 Y82.838 E0.76840
G1 X122.915 Y82.918 E0.01684
G1 X137.673 Y97.676 E0.76424
G1 X137.140 Y97.676 E0.01953
G1 X122.483 Y83.019 E0.75901
G1 X122.073 Y83.143 E0.01567
G1 X136.607 Y97.676 E0.75261
G1 X136.073 Y97.676 E0.01953
G1 X121.664 Y83.266 E0.74621
M73 P9 R21
G1 X121.254 Y83.390 E0.01567
G1 X135.540 Y97.676 E0.73982
G1 X135.007 Y97.676 E0.01953
G1 X120.844 Y83.513 E0.73342
G1 X120.434 Y83.637 E0.01567
G1 X134.473 Y97.676 E0.72702
G1 X133.940 Y97.676 E0.01953
G1 X120.030 Y83.766 E0.72035
G1 X119.658 Y83.927 E0.01484
G1 X133.407 Y97.676 E0.71198
M73 P9 R20
G1 X132.874 Y97.676 E0.01953
G1 X119.286 Y84.089 E0.70362
G1 X118.915 Y84.250 E0.01484
G1 X132.340 Y97.676 E0.69525
G1 X131.807 Y97.676 E0.01953
G1 X118.543 Y84.412 E0.68688
G1 X118.171 Y84.574 E0.01484
G1 X131.274 Y97.676 E0.67852
G1 X130.740 Y97.676 E0.01953
G1 X117.799 Y84.735 E0.67015
G1 X117.443 Y84.912 E0.01457
G1 X130.207 Y97.676 E0.66098
G1 X129.674 Y97.676 E0.01953
G1 X117.106 Y85.108 E0.65082
G1 X116.769 Y85.304 E0.01428
G1 X129.140 Y97.676 E0.64066
G1 X128.607 Y97.676 E0.01953
G1 X116.432 Y85.501 E0.63050
M73 P10 R20
G1 X116.095 Y85.697 E0.01428
G1 X128.071 Y97.674 E0.62022
G1 X127.505 Y97.640 E0.02078
G1 X115.758 Y85.893 E0.60834
G1 X115.421 Y86.089 E0.01428
G1 X126.938 Y97.607 E0.59646
G1 X126.372 Y97.574 E0.02078
G1 X115.083 Y86.285 E0.58462
G1 X114.741 Y86.477 E0.01434
G1 X125.805 Y97.541 E0.57295
G1 X125.223 Y97.491 E0.02141
G1 X114.400 Y86.669 E0.56046
G1 X114.059 Y86.861 E0.01434
G1 X124.574 Y97.376 E0.54455
G1 X123.926 Y97.261 E0.02411
G1 X113.718 Y87.053 E0.52865
G1 X113.376 Y87.245 E0.01434
G1 X123.278 Y97.146 E0.51274
G1 X122.620 Y97.022 E0.02449
G1 X113.010 Y87.411 E0.49770
G1 X112.624 Y87.559 E0.01512
G1 X121.857 Y96.792 E0.47813
G1 X121.093 Y96.562 E0.02920
G1 X112.239 Y87.707 E0.45856
G1 X111.853 Y87.855 E0.01512
G1 X120.330 Y96.332 E0.43898
G1 X120.081 Y96.257 E0.00950
G1 X119.445 Y95.980 E0.02540
G1 X111.467 Y88.002 E0.41313
G1 X111.082 Y88.150 E0.01512
G1 X118.502 Y95.570 E0.38425
G1 X117.546 Y95.148 E0.03825
G1 X110.648 Y88.249 E0.35726
G1 X110.212 Y88.347 E0.01636
G1 X116.270 Y94.405 E0.31376
G1 X115.001 Y93.669 E0.05373
G1 X109.776 Y88.444 E0.27061
G1 X109.340 Y88.541 E0.01636
G1 X113.782 Y92.983 E0.23004
M73 P11 R20
G1 X113.232 Y92.674 E0.02312
G1 X112.757 Y92.492 E0.01861
G1 X108.904 Y88.639 E0.19955
G1 X108.420 Y88.688 E0.01780
G1 X111.892 Y92.160 E0.17981
G1 X111.036 Y91.838 E0.03351
G1 X107.923 Y88.725 E0.16121
G1 X107.426 Y88.761 E0.01824
G1 X110.350 Y91.684 E0.15138
G1 X109.663 Y91.531 E0.02576
G1 X106.929 Y88.797 E0.14156
G1 X106.423 Y88.824 E0.01858
G1 X108.976 Y91.378 E0.13224
G1 X108.809 Y91.340 E0.00627
G1 X108.374 Y91.309 E0.01599
G1 X105.889 Y88.824 E0.12866
G1 X105.356 Y88.824 E0.01953
G1 X107.798 Y91.266 E0.12647
G1 X107.223 Y91.224 E0.02113
G1 X104.823 Y88.824 E0.12429
G1 X104.290 Y88.824 E0.01953
G1 X106.647 Y91.182 E0.12210
G1 X106.108 Y91.176 E0.01975
G1 X103.756 Y88.824 E0.12180
G1 X103.223 Y88.824 E0.01953
G1 X105.575 Y91.176 E0.12180
G1 X105.042 Y91.176 E0.01953
G1 X102.690 Y88.824 E0.12180
G1 X102.156 Y88.824 E0.01953
G1 X104.508 Y91.176 E0.12180
G1 X103.975 Y91.176 E0.01953
G1 X101.623 Y88.824 E0.12180
G1 X101.090 Y88.824 E0.01953
G1 X103.442 Y91.176 E0.12180
G1 X102.908 Y91.176 E0.01953
G1 X100.557 Y88.824 E0.12180
G1 X100.023 Y88.824 E0.01953
G1 X102.375 Y91.176 E0.12180
G1 X101.842 Y91.176 E0.01953
G1 X99.490 Y88.824 E0.12180
G1 X98.957 Y88.824 E0.01953
G1 X101.309 Y91.176 E0.12180
G1 X100.775 Y91.176 E0.01953
G1 X98.423 Y88.824 E0.12180
G1 X97.890 Y88.824 E0.01953
G1 X100.242 Y91.176 E0.12180
G1 X99.709 Y91.176 E0.01953
G1 X97.357 Y88.824 E0.12180
G1 X96.823 Y88.824 E0.01953
G1 X99.175 Y91.176 E0.12180
G1 X98.642 Y91.176 E0.01953
G1 X96.290 Y88.824 E0.12180
G1 X95.757 Y88.824 E0.01953
G1 X98.109 Y91.176 E0.12180
G1 X97.575 Y91.176 E0.01953
G1 X95.224 Y88.824 E0.12180
G1 X94.690 Y88.824 E0.01953
G1 X97.042 Y91.176 E0.12180
G1 X96.509 Y91.176 E0.01953
G1 X94.157 Y88.824 E0.12180
G1 X93.624 Y88.824 E0.01953
G1 X95.976 Y91.176 E0.12180
G1 X95.442 Y91.176 E0.01953
G1 X93.090 Y88.824 E0.12180
G1 X92.557 Y88.824 E0.01953
G1 X94.909 Y91.176 E0.12180
G1 X94.376 Y91.176 E0.01953
G1 X92.024 Y88.824 E0.12180
G1 X91.490 Y88.824 E0.01953
G1 X93.842 Y91.176 E0.12180
G1 X93.309 Y91.176 E0.01953
G1 X90.957 Y88.824 E0.12180
G1 X90.424 Y88.824 E0.01953
G1 X92.776 Y91.176 E0.12180
G1 X92.242 Y91.176 E0.01953
G1 X89.891 Y88.824 E0.12180
G1 X89.357 Y88.824 E0.01953
G1 X91.709 Y91.176 E0.12180
G1 X91.176 Y91.176 E0.01953
G1 X88.824 Y88.824 E0.12180
G1 X88.291 Y88.824 E0.01953
G1 X90.643 Y91.176 E0.12180
G1 X90.109 Y91.176 E0.01953
G1 X87.757 Y88.824 E0.12180
G1 X87.224 Y88.824 E0.01953
G1 X89.576 Y91.176 E0.12180
G1 X89.043 Y91.176 E0.01953
G1 X86.691 Y88.824 E0.12180
G1 X86.157 Y88.824 E0.01953
G1 X88.509 Y91.176 E0.12180
G1 X87.976 Y91.176 E0.01953
G1 X85.624 Y88.824 E0.12180
G1 X85.091 Y88.824 E0.01953
G1 X87.443 Y91.176 E0.12180
G1 X86.910 Y91.176 E0.01953
G1 X84.558 Y88.824 E0.12180
G1 X84.024 Y88.824 E0.01953
G1 X86.376 Y91.176 E0.12180
G1 X85.843 Y91.176 E0.01953
G1 X83.491 Y88.824 E0.12180
G1 X82.958 Y88.824 E0.01953
G1 X85.310 Y91.176 E0.12180
G1 X84.776 Y91.176 E0.01953
G1 X82.424 Y88.824 E0.12180
G1 X81.891 Y88.824 E0.01953
G1 X84.243 Y91.176 E0.12180
G1 X83.710 Y91.176 E0.01953
G1 X81.358 Y88.824 E0.12180
G1 X80.825 Y88.824 E0.01953
G1 X83.176 Y91.176 E0.12180
G1 X82.643 Y91.176 E0.01953
G1 X80.291 Y88.824 E0.12180
G1 X79.758 Y88.824 E0.01953
G1 X82.110 Y91.176 E0.12180
G1 X81.577 Y91.176 E0.01953
