; generated by PrusaSlicer 2.3.0+win64 on 2021-04-09 at 15:58:14 UTC


;
;

;
;
; 

; external perimeters extrusion width = 0.65mm
; perimeters extrusion width = 0.65mm
; infill extrusion width = 0.65mm
; solid infill extrusion width = 0.65mm
; top infill extrusion width = 0.60mm
; first layer extrusion width = 0.65mm

M73 P0 R13
M201 X1250 Y1250 Z400 E5000 ; sets maximum accelerations, mm/sec^2
M203 X180 Y180 Z12 E80 ; sets maximum feedrates, mm/sec
M204 P1250 R1250 T1250 ; sets acceleration (P, T) and retract acceleration (R), mm/sec^2
M205 X8.00 Y8.00 Z2.00 E10.00 ; sets the jerk limits, mm/sec
M205 S0 T0 ; sets the minimum extruding and travel feed rate, mm/sec
M107
;TYPE:Custom
M301 P13.54 I0.98 D46.58
G90 ; use absolute coordinates
M83 ; extruder relative mode
M104 S170 ; set extruder temp for bed leveling
M140 S60 ; set bed temp
M109 R170 ; wait for bed leveling temp
M190 S60 ; wait for bed temp
G28 ; home all without mesh bed level
G29 ; mesh bed leveling 
M104 S230 ; set extruder temp
G92 E0.0
G1 Y-2.0 X179 F2400
G1 Z3 F720
M109 S230 ; wait for extruder temp

; intro line
G1 X170 F1000
G1 Z0.2 F720
G1 X110.0 E8.0 F900
M73 P1 R13
G1 X40.0 E10.0 F700
G92 E0.0

M221 S95 ; set flow
G21 ; set units to millimeters
G90 ; use absolute coordinates
M83 ; use relative distances for extrusion
M900 K0.12 ; Filament gcode
;LAYER_CHANGE
;Z:0.2
;HEIGHT:0.2
;BEFORE_LAYER_CHANGE
G92 E0.0
;0.2


G1 E-3.50000 F4200.000
G1 Z0.200 F9000.000
;AFTER_LAYER_CHANGE
;0.2
G1 Z0.400
G1 X32.018 Y77.938
M73 P2 R13
G1 Z0.200
G1 E3.50000 F2400.000
M204 S1000
;TYPE:Skirt
;WIDTH:0.65
G1 F1200.000
G1 X147.504 Y77.893 E6.80793
G1 X148.488 Y78.087 E0.05912
G1 X149.326 Y78.639 E0.05912
G1 X149.895 Y79.469 E0.05935
G1 X150.107 Y80.450 E0.05912
G1 X150.095 Y99.755 E1.13804
G1 X149.881 Y100.561 E0.04917
G1 X149.422 Y101.262 E0.04940
G1 X148.767 Y101.779 E0.04917
G1 X147.982 Y102.062 E0.04917
G1 X32.452 Y102.107 E6.81052
M73 P3 R13
G1 X31.583 Y101.940 E0.05219
G1 X30.819 Y101.493 E0.05219
G1 X30.249 Y100.815 E0.05219
G1 X29.938 Y99.982 E0.05242
G1 X29.904 Y80.257 E1.16281
G1 X30.115 Y79.446 E0.04940
G1 X30.573 Y78.744 E0.04940
G1 X31.230 Y78.223 E0.04940
G1 X31.933 Y77.969 E0.04410
M204 S1250
; printing object body990734 id:0 copy 0
G1 E-2.45000 F4200.000
;WIPE_START
G1 F7200.000
G1 X33.733 Y77.967 E-0.99750
;WIPE_END
G1 E-0.05250 F4200.000
G1 Z0.400 F9000.000
G1 X33.632 Y81.632
G1 Z0.200
G1 E3.50000 F2400.000
M204 S1000
;TYPE:Perimeter
G1 F1200.000
G1 X51.909 Y81.632 E1.07741
G1 X54.731 Y81.798 E0.16666
M73 P4 R13
G1 X57.482 Y82.286 E0.16471
G1 X60.157 Y83.093 E0.16471
G1 X62.720 Y84.206 E0.16471
G1 X65.199 Y85.649 E0.16911
G1 X67.063 Y86.698 E0.12612
G1 X69.131 Y87.491 E0.13052
G1 X71.292 Y87.973 E0.13052
G1 X73.459 Y88.132 E0.12807
G1 X106.541 Y88.132 E1.95024
G1 X108.708 Y87.973 E0.12807
G1 X110.869 Y87.491 E0.13052
G1 X112.937 Y86.698 E0.13052
G1 X114.801 Y85.649 E0.12612
G1 X117.280 Y84.206 E0.16911
G1 X119.843 Y83.093 E0.16471
G1 X122.518 Y82.286 E0.16471
G1 X125.269 Y81.798 E0.16471
G1 X128.091 Y81.632 E0.16666
G1 X146.368 Y81.632 E1.07741
G1 X146.368 Y98.368 E0.98658
G1 X128.091 Y98.368 E1.07741
G1 X125.269 Y98.202 E0.16666
G1 X122.518 Y97.714 E0.16471
G1 X119.843 Y96.907 E0.16471
G1 X117.280 Y95.794 E0.16471
G1 X114.801 Y94.351 E0.16911
G1 X112.937 Y93.302 E0.12612
G1 X110.869 Y92.509 E0.13052
G1 X108.708 Y92.027 E0.13052
G1 X106.541 Y91.868 E0.12807
G1 X73.459 Y91.868 E1.95024
M73 P5 R13
G1 X71.292 Y92.027 E0.12807
G1 X69.131 Y92.509 E0.13052
G1 X67.063 Y93.302 E0.13052
G1 X65.199 Y94.351 E0.12612
G1 X62.720 Y95.794 E0.16911
G1 X60.157 Y96.907 E0.16471
G1 X57.482 Y97.714 E0.16471
G1 X54.731 Y98.202 E0.16471
G1 X51.909 Y98.368 E0.16666
G1 X33.632 Y98.368 E1.07741
G1 X33.632 Y81.722 E0.98127
M204 S1250
G1 X33.025 Y81.025 F9000.000
M204 S1000
;TYPE:External perimeter
G1 F1200.000
G1 X51.927 Y81.025 E1.11425
G1 X54.802 Y81.194 E0.16981
G1 X57.623 Y81.694 E0.16890
G1 X60.366 Y82.522 E0.16890
G1 X62.994 Y83.664 E0.16890
G1 X65.500 Y85.122 E0.17094
G1 X67.322 Y86.147 E0.12323
G1 X69.307 Y86.908 E0.12527
G1 X71.381 Y87.371 E0.12527
G1 X73.481 Y87.525 E0.12414
G1 X106.519 Y87.525 E1.94762
M73 P6 R13
G1 X108.619 Y87.371 E0.12414
G1 X110.693 Y86.908 E0.12527
G1 X112.678 Y86.147 E0.12527
G1 X114.500 Y85.122 E0.12323
G1 X117.006 Y83.664 E0.17094
G1 X119.634 Y82.522 E0.16890
G1 X122.377 Y81.694 E0.16890
G1 X125.198 Y81.194 E0.16890
G1 X128.073 Y81.025 E0.16981
G1 X146.975 Y81.025 E1.11425
G1 X146.975 Y98.975 E1.05815
M73 P6 R12
G1 X128.073 Y98.975 E1.11425
G1 X125.198 Y98.806 E0.16981
G1 X122.377 Y98.306 E0.16890
G1 X119.634 Y97.478 E0.16890
G1 X117.006 Y96.336 E0.16890
G1 X114.500 Y94.878 E0.17094
G1 X112.678 Y93.853 E0.12323
G1 X110.693 Y93.092 E0.12527
G1 X108.619 Y92.629 E0.12527
G1 X106.519 Y92.475 E0.12414
G1 X73.481 Y92.475 E1.94762
G1 X71.381 Y92.629 E0.12414
G1 X69.307 Y93.092 E0.12527
G1 X67.322 Y93.853 E0.12527
G1 X65.500 Y94.878 E0.12323
G1 X62.994 Y96.336 E0.17094
G1 X60.366 Y97.478 E0.16890
G1 X57.623 Y98.306 E0.16890
G1 X54.802 Y98.806 E0.16890
G1 X51.927 Y98.975 E0.16981
G1 X33.025 Y98.975 E1.11425
M73 P7 R12
G1 X33.025 Y81.115 E1.05285
M204 S1250
G1 X33.606 Y81.175 F9000.000
G1 E-2.45000 F4200.000
;WIPE_START
G1 F7200.000
G1 X34.825 Y81.106 E-0.99750
;WIPE_END
G1 E-0.05250 F4200.000
G1 Z0.400 F9000.000
G1 X144.958 Y81.814
G1 Z0.200
G1 E3.50000 F2400.000
M204 S1000
;TYPE:Solid infill
;WIDTH:0.650393
G1 F1200.000
G1 X145.913 Y82.769 E0.07965
G1 X145.913 Y83.628 E0.05068
G1 X144.372 Y82.087 E0.12853
G1 X143.513 Y82.087 E0.05068
G1 X145.913 Y84.487 E0.20020
G1 X145.913 Y85.346 E0.05068
G1 X142.654 Y82.087 E0.27187
G1 X141.795 Y82.087 E0.05068
G1 X145.913 Y86.205 E0.34353
G1 X145.913 Y87.064 E0.05068
G1 X140.936 Y82.087 E0.41520
G1 X140.076 Y82.087 E0.05068
G1 X145.913 Y87.924 E0.48687
G1 X145.913 Y88.783 E0.05068
G1 X139.217 Y82.087 E0.55854
G1 X138.358 Y82.087 E0.05068
G1 X145.913 Y89.642 E0.63020
G1 X145.913 Y90.501 E0.05068
G1 X137.499 Y82.087 E0.70187
G1 X136.640 Y82.087 E0.05068
G1 X145.913 Y91.360 E0.77354
G1 X145.913 Y92.219 E0.05068
G1 X135.781 Y82.087 E0.84521
M73 P8 R12
G1 X134.922 Y82.087 E0.05068
G1 X145.913 Y93.078 E0.91687
G1 X145.913 Y93.937 E0.05068
G1 X134.063 Y82.087 E0.98854
G1 X133.204 Y82.087 E0.05068
G1 X145.913 Y94.796 E1.06021
G1 X145.913 Y95.655 E0.05068
G1 X132.345 Y82.087 E1.13188
G1 X131.485 Y82.087 E0.05068
G1 X145.913 Y96.515 E1.20355
G1 X145.913 Y97.374 E0.05068
G1 X130.626 Y82.087 E1.27521
G1 X129.767 Y82.087 E0.05068
G1 X145.592 Y97.913 E1.32017
G1 X144.733 Y97.913 E0.05068
G1 X128.908 Y82.087 E1.32017
M73 P9 R12
G1 X128.052 Y82.090 E0.05050
G1 X143.874 Y97.913 E1.31992
G1 X143.015 Y97.913 E0.05068
G1 X127.241 Y82.138 E1.31595
G1 X126.429 Y82.186 E0.04795
G1 X142.156 Y97.913 E1.31198
G1 X141.297 Y97.913 E0.05068
G1 X125.618 Y82.233 E1.30801
G1 X125.322 Y82.251 E0.01746
G1 X124.858 Y82.333 E0.02780
G1 X140.438 Y97.913 E1.29969
G1 X139.579 Y97.913 E0.05068
G1 X124.129 Y82.462 E1.28889
G1 X123.399 Y82.592 E0.04371
G1 X138.720 Y97.913 E1.27808
M73 P10 R12
G1 X137.861 Y97.913 E0.05068
G1 X122.669 Y82.721 E1.26728
G1 X122.005 Y82.916 E0.04084
G1 X137.002 Y97.913 E1.25104
G1 X136.142 Y97.913 E0.05068
G1 X121.345 Y83.115 E1.23443
G1 X120.685 Y83.314 E0.04067
G1 X135.283 Y97.913 E1.21783
G1 X134.424 Y97.913 E0.05068
G1 X120.025 Y83.513 E1.20123
G1 X119.424 Y83.771 E0.03859
G1 X133.565 Y97.913 E1.17971
G1 X132.706 Y97.913 E0.05068
G1 X118.825 Y84.031 E1.15800
G1 X118.226 Y84.292 E0.03852
M73 P11 R12
G1 X131.847 Y97.913 E1.13629
G1 X130.988 Y97.913 E0.05068
G1 X117.627 Y84.552 E1.11458
G1 X117.486 Y84.613 E0.00906
G1 X117.071 Y84.855 E0.02835
G1 X130.129 Y97.913 E1.08930
G1 X129.270 Y97.913 E0.05068
G1 X116.528 Y85.171 E1.06294
G1 X115.985 Y85.487 E0.03706
G1 X128.411 Y97.913 E1.03657
G1 X127.517 Y97.878 E0.05275
G1 X115.442 Y85.803 E1.00733
G1 X114.897 Y86.118 E0.03710
G1 X126.604 Y97.825 E0.97663
G1 X125.692 Y97.771 E0.05393
G1 X114.348 Y86.427 E0.94636
G1 X113.798 Y86.736 E0.03721
G1 X124.701 Y97.639 E0.90955
M73 P12 R12
G1 X123.656 Y97.454 E0.06258
G1 X113.248 Y87.045 E0.86827
G1 X113.131 Y87.111 E0.00793
G1 X112.642 Y87.299 E0.03087
G1 X122.609 Y97.266 E0.83150
G1 X121.380 Y96.895 E0.07578
G1 X112.021 Y87.537 E0.78070
G1 X111.400 Y87.775 E0.03923
G1 X120.150 Y96.524 E0.72991
G1 X120.000 Y96.479 E0.00923
G1 X118.665 Y95.899 E0.08583
G1 X110.750 Y87.984 E0.66032
G1 X110.048 Y88.141 E0.04245
G1 X117.026 Y95.119 E0.58213
G1 X114.973 Y93.925 E0.14009
G1 X109.345 Y88.297 E0.46946
G1 X108.775 Y88.425 E0.03448
G1 X108.625 Y88.436 E0.00888
G1 X113.044 Y92.855 E0.36869
G1 X111.651 Y92.321 E0.08801
G1 X107.824 Y88.495 E0.31924
G1 X107.024 Y88.553 E0.04734
G1 X110.411 Y91.940 E0.28257
G1 X109.305 Y91.694 E0.06685
G1 X106.199 Y88.587 E0.25913
G1 X105.340 Y88.587 E0.05068
G1 X108.292 Y91.540 E0.24630
G1 X107.365 Y91.472 E0.05483
G1 X104.481 Y88.587 E0.24063
G1 X103.622 Y88.587 E0.05068
G1 X106.447 Y91.413 E0.23569
G1 X105.588 Y91.413 E0.05068
G1 X102.762 Y88.587 E0.23569
G1 X101.903 Y88.587 E0.05068
G1 X104.729 Y91.413 E0.23569
G1 X103.870 Y91.413 E0.05068
G1 X101.044 Y88.587 E0.23569
G1 X100.185 Y88.587 E0.05068
G1 X103.010 Y91.413 E0.23569
G1 X102.151 Y91.413 E0.05068
M73 P13 R12
G1 X99.326 Y88.587 E0.23569
G1 X98.467 Y88.587 E0.05068
G1 X101.292 Y91.413 E0.23569
G1 X100.433 Y91.413 E0.05068
G1 X97.608 Y88.587 E0.23569
G1 X96.749 Y88.587 E0.05068
G1 X99.574 Y91.413 E0.23569
G1 X98.715 Y91.413 E0.05068
G1 X95.890 Y88.587 E0.23569
G1 X95.031 Y88.587 E0.05068
G1 X97.856 Y91.413 E0.23569
G1 X96.997 Y91.413 E0.05068
G1 X94.172 Y88.587 E0.23569
G1 X93.312 Y88.587 E0.05068
G1 X96.138 Y91.413 E0.23569
G1 X95.279 Y91.413 E0.05068
G1 X92.453 Y88.587 E0.23569
G1 X91.594 Y88.587 E0.05068
G1 X94.419 Y91.413 E0.23569
G1 X93.560 Y91.413 E0.05068
G1 X90.735 Y88.587 E0.23569
G1 X89.876 Y88.587 E0.05068
G1 X92.701 Y91.413 E0.23569
G1 X91.842 Y91.413 E0.05068
G1 X89.017 Y88.587 E0.23569
G1 X88.158 Y88.587 E0.05068
G1 X90.983 Y91.413 E0.23569
G1 X90.124 Y91.413 E0.05068
G1 X87.299 Y88.587 E0.23569
G1 X86.440 Y88.587 E0.05068
G1 X89.265 Y91.413 E0.23569
G1 X88.406 Y91.413 E0.05068
G1 X85.581 Y88.587 E0.23569
G1 X84.721 Y88.587 E0.05068
G1 X87.547 Y91.413 E0.23569
G1 X86.688 Y91.413 E0.05068
G1 X83.862 Y88.587 E0.23569
G1 X83.003 Y88.587 E0.05068
G1 X85.829 Y91.413 E0.23569
G1 X84.969 Y91.413 E0.05068
G1 X82.144 Y88.587 E0.23569
G1 X81.285 Y88.587 E0.05068
G1 X84.110 Y91.413 E0.23569
G1 X83.251 Y91.413 E0.05068
G1 X80.426 Y88.587 E0.23569
G1 X79.567 Y88.587 E0.05068
G1 X82.392 Y91.413 E0.23569
G1 X81.533 Y91.413 E0.05068
G1 X78.708 Y88.587 E0.23569
G1 X77.849 Y88.587 E0.05068
G1 X80.674 Y91.413 E0.23569
G1 X79.815 Y91.413 E0.05068
G1 X76.990 Y88.587 E0.23569
G1 X76.130 Y88.587 E0.05068
G1 X78.956 Y91.413 E0.23569
M73 P13 R11
G1 X78.097 Y91.413 E0.05068
G1 X75.271 Y88.587 E0.23569
G1 X74.412 Y88.587 E0.05068
G1 X77.238 Y91.413 E0.23569
G1 X76.378 Y91.413 E0.05068
G1 X73.553 Y88.587 E0.23569
G1 X72.635 Y88.528 E0.05428
G1 X75.519 Y91.413 E0.24062
M73 P14 R11
G1 X74.660 Y91.413 E0.05068
G1 X71.708 Y88.460 E0.24630
G1 X71.225 Y88.425 E0.02855
G1 X70.695 Y88.306 E0.03205
G1 X73.801 Y91.413 E0.25912
G1 X73.442 Y91.413 E0.02119
G1 X72.976 Y91.447 E0.02754
G1 X69.589 Y88.060 E0.28257
G1 X68.999 Y87.928 E0.03565
G1 X68.349 Y87.679 E0.04107
G1 X72.176 Y91.505 E0.31924
G1 X71.375 Y91.564 E0.04734
G1 X66.956 Y87.145 E0.36869
G1 X66.869 Y87.111 E0.00547
G1 X65.027 Y86.075 E0.12468
G1 X70.655 Y91.703 E0.46946
G1 X69.952 Y91.859 E0.04245
G1 X62.974 Y84.881 E0.58213
G1 X62.514 Y84.613 E0.03144
G1 X61.335 Y84.101 E0.07583
G1 X69.250 Y92.016 E0.66032
G1 X68.999 Y92.072 E0.01517
G1 X68.600 Y92.225 E0.02521
G1 X59.850 Y83.476 E0.72990
G1 X58.621 Y83.105 E0.07578
G1 X67.979 Y92.463 E0.78070
G1 X67.358 Y92.701 E0.03923
G1 X57.391 Y82.734 E0.83150
G1 X56.344 Y82.546 E0.06273
G1 X66.752 Y92.955 E0.86827
G1 X66.202 Y93.264 E0.03721
G1 X55.299 Y82.361 E0.90955
G1 X54.678 Y82.251 E0.03723
G1 X54.308 Y82.229 E0.02184
G1 X65.653 Y93.573 E0.94636
G1 X65.103 Y93.882 E0.03721
G1 X53.396 Y82.175 E0.97663
M73 P15 R11
G1 X52.483 Y82.122 E0.05393
G1 X64.558 Y94.197 E1.00733
G1 X64.015 Y94.513 E0.03706
G1 X51.589 Y82.087 E1.03657
G1 X50.730 Y82.087 E0.05068
G1 X63.472 Y94.829 E1.06294
G1 X62.929 Y95.145 E0.03706
G1 X49.871 Y82.087 E1.08930
G1 X49.012 Y82.087 E0.05068
G1 X62.373 Y95.448 E1.11458
G1 X61.774 Y95.708 E0.03852
G1 X48.153 Y82.087 E1.13629
G1 X47.294 Y82.087 E0.05068
G1 X61.175 Y95.969 E1.15800
G1 X60.576 Y96.229 E0.03852
G1 X46.435 Y82.087 E1.17971
M73 P16 R11
G1 X45.576 Y82.087 E0.05068
G1 X59.975 Y96.487 E1.20123
G1 X59.315 Y96.686 E0.04067
G1 X44.717 Y82.087 E1.21783
G1 X43.858 Y82.087 E0.05068
G1 X58.655 Y96.885 E1.23443
G1 X57.995 Y97.084 E0.04067
G1 X42.998 Y82.087 E1.25104
G1 X42.139 Y82.087 E0.05068
G1 X57.331 Y97.279 E1.26728
G1 X56.601 Y97.408 E0.04371
G1 X41.280 Y82.087 E1.27808
G1 X40.421 Y82.087 E0.05068
G1 X55.871 Y97.538 E1.28889
M73 P17 R11
G1 X55.142 Y97.667 E0.04371
G1 X39.562 Y82.087 E1.29969
G1 X38.703 Y82.087 E0.05068
G1 X54.382 Y97.767 E1.30801
G1 X53.571 Y97.814 E0.04795
G1 X37.844 Y82.087 E1.31198
G1 X36.985 Y82.087 E0.05068
G1 X52.759 Y97.862 E1.31595
G1 X51.948 Y97.910 E0.04795
G1 X36.126 Y82.087 E1.31992
G1 X35.267 Y82.087 E0.05068
G1 X51.092 Y97.913 E1.32017
G1 X50.233 Y97.913 E0.05068
G1 X34.408 Y82.087 E1.32017
M73 P18 R11
G1 X34.087 Y82.087 E0.01889
G1 X34.087 Y82.626 E0.03179
G1 X49.374 Y97.913 E1.27521
G1 X48.515 Y97.913 E0.05068
G1 X34.087 Y83.485 E1.20355
G1 X34.087 Y84.345 E0.05068
G1 X47.655 Y97.913 E1.13188
G1 X46.796 Y97.913 E0.05068
G1 X34.087 Y85.204 E1.06021
G1 X34.087 Y86.063 E0.05068
G1 X45.937 Y97.913 E0.98854
G1 X45.078 Y97.913 E0.05068
G1 X34.087 Y86.922 E0.91688
G1 X34.087 Y87.781 E0.05068
G1 X44.219 Y97.913 E0.84521
G1 X43.360 Y97.913 E0.05068
G1 X34.087 Y88.640 E0.77354
G1 X34.087 Y89.499 E0.05068
G1 X42.501 Y97.913 E0.70187
M73 P19 R11
G1 X41.642 Y97.913 E0.05068
G1 X34.087 Y90.358 E0.63021
G1 X34.087 Y91.217 E0.05068
G1 X40.783 Y97.913 E0.55854
G1 X39.924 Y97.913 E0.05068
G1 X34.087 Y92.076 E0.48687
G1 X34.087 Y92.935 E0.05068
G1 X39.065 Y97.913 E0.41520
G1 X38.205 Y97.913 E0.05068
G1 X34.087 Y93.795 E0.34354
G1 X34.087 Y94.654 E0.05068
G1 X37.346 Y97.913 E0.27187
G1 X36.487 Y97.913 E0.05068
G1 X34.087 Y95.513 E0.20020
G1 X34.087 Y96.372 E0.05068
G1 X35.628 Y97.913 E0.12853
G1 X34.769 Y97.913 E0.05068
G1 X33.814 Y96.958 E0.07966
M204 S1250
; stop printing object body990734 id:0 copy 0
M106 S255
;LAYER_CHANGE
;Z:0.4
;HEIGHT:0.2
;BEFORE_LAYER_CHANGE
G92 E0.0
;0.4


G1 E-2.45000 F4200.000
;WIPE_START
G1 F7200.000
G1 X34.769 Y97.913 E-0.74832
G1 X35.219 Y97.913 E-0.24918
;WIPE_END
G1 E-0.05250 F4200.000
G1 Z0.400 F9000.000
;AFTER_LAYER_CHANGE
;0.4
G1 Z0.600
G1 X29.938 Y99.982
G1 Z0.400
G1 E3.50000 F2400.000
;TYPE:Skirt
;WIDTH:0.65
G1 X29.904 Y80.257 E1.16281
G1 X30.115 Y79.446 E0.04940
G1 X30.573 Y78.744 E0.04940
G1 X31.230 Y78.223 E0.04940
G1 X32.018 Y77.938 E0.04940
G1 X147.504 Y77.893 E6.80793
G1 X148.488 Y78.087 E0.05912
G1 X149.326 Y78.639 E0.05912
G1 X149.895 Y79.469 E0.05935
G1 X150.107 Y80.450 E0.05912
G1 X150.095 Y99.755 E1.13804
M73 P20 R11
G1 X149.881 Y100.561 E0.04917
G1 X149.422 Y101.262 E0.04940
G1 X148.767 Y101.779 E0.04917
G1 X147.982 Y102.062 E0.04917
G1 X32.452 Y102.107 E6.81052
G1 X31.583 Y101.940 E0.05219
G1 X30.819 Y101.493 E0.05219
G1 X30.249 Y100.815 E0.05219
G1 X29.969 Y100.067 E0.04711
; printing object body990734 id:0 copy 0
G1 E-2.45000 F4200.000
;WIPE_START
G1 F7200.000
G1 X29.963 Y98.267 E-0.99750
;WIPE_END
G1 E-0.05250 F4200.000
G1 Z0.600 F9000.000
G1 X33.432 Y98.568
G1 Z0.400
G1 E3.50000 F2400.000
M204 S800
;TYPE:Perimeter
G1 F2700.000
G1 X33.432 Y81.432 E1.01016
G1 X51.915 Y81.432 E1.08955
G1 X54.755 Y81.599 E0.16770
G1 X57.529 Y82.091 E0.16609
G1 X60.226 Y82.904 E0.16609
G1 X62.810 Y84.027 E0.16609
G1 X65.298 Y85.476 E0.16971
G1 X67.149 Y86.517 E0.12517
G1 X69.189 Y87.299 E0.12879
G1 X71.321 Y87.775 E0.12879
G1 X73.466 Y87.932 E0.12678
G1 X106.534 Y87.932 E1.94938
G1 X108.679 Y87.775 E0.12678
G1 X110.811 Y87.299 E0.12879
G1 X112.851 Y86.517 E0.12879
