; generated by PrusaSlicer 2.3.0+win64 on 2021-04-09 at 16:00:29 UTC


;
;

;
;
; 

; external perimeters extrusion width = 0.65mm
; perimeters extrusion width = 0.65mm
; infill extrusion width = 0.65mm
; solid infill extrusion width = 0.65mm
; top infill extrusion width = 0.60mm
; first layer extrusion width = 0.65mm

M73 P0 R17
M201 X1250 Y1250 Z400 E5000 ; sets maximum accelerations, mm/sec^2
M203 X180 Y180 Z12 E80 ; sets maximum feedrates, mm/sec
M204 P1250 R1250 T1250 ; sets acceleration (P, T) and retract acceleration (R), mm/sec^2
M205 X8.00 Y8.00 Z2.00 E10.00 ; sets the jerk limits, mm/sec
M205 S0 T0 ; sets the minimum extruding and travel feed rate, mm/sec
M107
;TYPE:Custom
M301 P13.54 I0.98 D46.58
G90 ; use absolute coordinates
M83 ; extruder relative mode
M104 S170 ; set extruder temp for bed leveling
M140 S60 ; set bed temp
M109 R170 ; wait for bed leveling temp
M190 S60 ; wait for bed temp
G28 ; home all without mesh bed level
G29 ; mesh bed leveling 
M104 S215 ; set extruder temp
G92 E0.0
G1 Y-2.0 X179 F2400
G1 Z3 F720
M109 S215 ; wait for extruder temp

; intro line
G1 X170 F1000
G1 Z0.2 F720
G1 X110.0 E8.0 F900
G1 X40.0 E10.0 F700
G92 E0.0

M221 S95 ; set flow
G21 ; set units to millimeters
G90 ; use absolute coordinates
M83 ; use relative distances for extrusion
M900 K0.12 ; Filament gcode
;LAYER_CHANGE
;Z:0.2
;HEIGHT:0.2
;BEFORE_LAYER_CHANGE
G92 E0.0
;0.2


M73 P1 R17
G1 E-3.50000 F4200.000
G1 Z0.200 F9000.000
;AFTER_LAYER_CHANGE
;0.2
G1 Z0.400
G1 X32.018 Y77.938
G1 Z0.200
G1 E3.50000 F2400.000
M204 S1000
;TYPE:Skirt
;WIDTH:0.65
G1 F1200.000
G1 X147.504 Y77.893 E6.80793
M73 P2 R17
G1 X148.488 Y78.087 E0.05912
G1 X149.326 Y78.639 E0.05912
G1 X149.895 Y79.469 E0.05935
G1 X150.107 Y80.450 E0.05912
G1 X150.095 Y99.755 E1.13804
G1 X149.881 Y100.561 E0.04917
G1 X149.422 Y101.262 E0.04940
G1 X148.767 Y101.779 E0.04917
G1 X147.982 Y102.062 E0.04917
G1 X32.452 Y102.107 E6.81052
G1 X31.583 Y101.940 E0.05219
G1 X30.819 Y101.493 E0.05219
G1 X30.249 Y100.815 E0.05219
G1 X29.938 Y99.982 E0.05242
G1 X29.904 Y80.257 E1.16281
G1 X30.115 Y79.446 E0.04940
G1 X30.573 Y78.744 E0.04940
G1 X31.230 Y78.223 E0.04940
G1 X31.933 Y77.969 E0.04410
M204 S1250
; printing object body990734 id:0 copy 0
G1 E-2.45000 F4200.000
;WIPE_START
G1 F7200.000
G1 X33.733 Y77.967 E-0.99750
;WIPE_END
G1 E-0.05250 F4200.000
G1 Z0.400 F9000.000
G1 X34.846 Y82.846
G1 Z0.200
G1 E3.50000 F2400.000
M204 S1000
;TYPE:Perimeter
G1 F1200.000
G1 X51.873 Y82.846 E1.00374
M73 P3 R17
G1 X54.589 Y83.005 E0.16037
G1 X57.200 Y83.469 E0.15631
G1 X59.739 Y84.234 E0.15631
G1 X62.170 Y85.291 E0.15631
G1 X64.596 Y86.703 E0.16544
G1 X66.546 Y87.800 E0.13189
G1 X68.779 Y88.656 E0.14102
G1 X71.114 Y89.178 E0.14102
G1 X73.414 Y89.346 E0.13594
G1 X106.586 Y89.346 E1.95548
G1 X108.886 Y89.178 E0.13594
G1 X111.221 Y88.656 E0.14102
G1 X113.454 Y87.800 E0.14102
G1 X115.404 Y86.703 E0.13189
G1 X117.830 Y85.291 E0.16544
G1 X120.261 Y84.234 E0.15631
G1 X122.800 Y83.469 E0.15631
G1 X125.411 Y83.005 E0.15631
G1 X128.127 Y82.846 E0.16037
G1 X145.154 Y82.846 E1.00374
G1 X145.154 Y97.154 E0.84343
G1 X128.127 Y97.154 E1.00374
G1 X125.411 Y96.995 E0.16037
G1 X122.800 Y96.531 E0.15631
G1 X120.261 Y95.766 E0.15631
G1 X117.830 Y94.709 E0.15631
G1 X115.404 Y93.297 E0.16544
G1 X113.454 Y92.200 E0.13189
G1 X111.221 Y91.344 E0.14102
G1 X108.886 Y90.822 E0.14102
G1 X106.586 Y90.654 E0.13594
G1 X73.414 Y90.654 E1.95548
G1 X71.114 Y90.822 E0.13594
G1 X68.779 Y91.344 E0.14102
G1 X66.546 Y92.200 E0.14102
G1 X64.596 Y93.297 E0.13189
G1 X62.170 Y94.709 E0.16544
G1 X59.739 Y95.766 E0.15631
M73 P4 R17
G1 X57.200 Y96.531 E0.15631
G1 X54.589 Y96.995 E0.15631
G1 X51.873 Y97.154 E0.16037
G1 X34.846 Y97.154 E1.00374
G1 X34.846 Y82.936 E0.83812
M204 S1250
G1 X34.239 Y82.239 F9000.000
M204 S1000
G1 F1200.000
G1 X51.891 Y82.239 E1.04058
G1 X54.660 Y82.402 E0.16352
G1 X57.341 Y82.877 E0.16051
G1 X59.948 Y83.663 E0.16051
G1 X62.445 Y84.749 E0.16051
G1 X64.897 Y86.176 E0.16727
G1 X66.805 Y87.249 E0.12900
G1 X68.955 Y88.074 E0.13577
G1 X71.203 Y88.575 E0.13577
G1 X73.436 Y88.739 E0.13201
G1 X106.564 Y88.739 E1.95286
G1 X108.797 Y88.575 E0.13201
G1 X111.045 Y88.074 E0.13577
G1 X113.195 Y87.249 E0.13577
G1 X115.103 Y86.176 E0.12900
G1 X117.555 Y84.749 E0.16727
G1 X120.052 Y83.663 E0.16051
G1 X122.659 Y82.877 E0.16051
G1 X125.340 Y82.402 E0.16051
G1 X128.109 Y82.239 E0.16352
G1 X145.761 Y82.239 E1.04058
G1 X145.761 Y97.761 E0.91500
G1 X128.109 Y97.761 E1.04058
G1 X125.340 Y97.598 E0.16352
G1 X122.659 Y97.123 E0.16051
G1 X120.052 Y96.337 E0.16051
G1 X117.555 Y95.251 E0.16051
G1 X115.103 Y93.824 E0.16727
G1 X113.195 Y92.751 E0.12900
G1 X111.045 Y91.926 E0.13577
G1 X108.797 Y91.425 E0.13577
M73 P5 R17
G1 X106.564 Y91.261 E0.13201
G1 X73.436 Y91.261 E1.95286
G1 X71.203 Y91.425 E0.13201
G1 X68.955 Y91.926 E0.13577
G1 X66.805 Y92.751 E0.13577
G1 X64.897 Y93.824 E0.12900
G1 X62.445 Y95.251 E0.16727
G1 X59.948 Y96.337 E0.16051
M73 P5 R16
G1 X57.341 Y97.123 E0.16051
G1 X54.660 Y97.598 E0.16051
G1 X51.891 Y97.761 E0.16352
G1 X34.239 Y97.761 E1.04058
G1 X34.239 Y82.329 E0.90970
M204 S1250
G1 X33.632 Y81.632 F9000.000
M204 S1000
G1 F1200.000
G1 X51.909 Y81.632 E1.07741
G1 X54.731 Y81.798 E0.16666
G1 X57.482 Y82.286 E0.16471
G1 X60.157 Y83.093 E0.16471
G1 X62.720 Y84.206 E0.16471
G1 X65.199 Y85.649 E0.16911
G1 X67.063 Y86.698 E0.12612
G1 X69.131 Y87.491 E0.13052
G1 X71.292 Y87.973 E0.13052
G1 X73.459 Y88.132 E0.12807
G1 X106.541 Y88.132 E1.95024
G1 X108.708 Y87.973 E0.12807
G1 X110.869 Y87.491 E0.13052
G1 X112.937 Y86.698 E0.13052
G1 X114.801 Y85.649 E0.12612
G1 X117.280 Y84.206 E0.16911
G1 X119.843 Y83.093 E0.16471
G1 X122.518 Y82.286 E0.16471
G1 X125.269 Y81.798 E0.16471
G1 X128.091 Y81.632 E0.16666
G1 X146.368 Y81.632 E1.07741
M73 P6 R16
G1 X146.368 Y98.368 E0.98658
G1 X128.091 Y98.368 E1.07741
G1 X125.269 Y98.202 E0.16666
G1 X122.518 Y97.714 E0.16471
G1 X119.843 Y96.907 E0.16471
G1 X117.280 Y95.794 E0.16471
G1 X114.801 Y94.351 E0.16911
G1 X112.937 Y93.302 E0.12612
G1 X110.869 Y92.509 E0.13052
G1 X108.708 Y92.027 E0.13052
G1 X106.541 Y91.868 E0.12807
G1 X73.459 Y91.868 E1.95024
G1 X71.292 Y92.027 E0.12807
G1 X69.131 Y92.509 E0.13052
G1 X67.063 Y93.302 E0.13052
G1 X65.199 Y94.351 E0.12612
G1 X62.720 Y95.794 E0.16911
G1 X60.157 Y96.907 E0.16471
G1 X57.482 Y97.714 E0.16471
G1 X54.731 Y98.202 E0.16471
G1 X51.909 Y98.368 E0.16666
G1 X33.632 Y98.368 E1.07741
G1 X33.632 Y81.722 E0.98127
M204 S1250
G1 X33.025 Y81.025 F9000.000
M204 S1000
;TYPE:External perimeter
G1 F1200.000
G1 X51.927 Y81.025 E1.11425
G1 X54.802 Y81.194 E0.16981
G1 X57.623 Y81.694 E0.16890
G1 X60.366 Y82.522 E0.16890
G1 X62.994 Y83.664 E0.16890
G1 X65.500 Y85.122 E0.17094
G1 X67.322 Y86.147 E0.12323
G1 X69.307 Y86.908 E0.12527
G1 X71.381 Y87.371 E0.12527
G1 X73.481 Y87.525 E0.12414
G1 X106.519 Y87.525 E1.94762
M73 P7 R16
G1 X108.619 Y87.371 E0.12414
G1 X110.693 Y86.908 E0.12527
G1 X112.678 Y86.147 E0.12527
G1 X114.500 Y85.122 E0.12323
G1 X117.006 Y83.664 E0.17094
G1 X119.634 Y82.522 E0.16890
G1 X122.377 Y81.694 E0.16890
G1 X125.198 Y81.194 E0.16890
G1 X128.073 Y81.025 E0.16981
G1 X146.975 Y81.025 E1.11425
G1 X146.975 Y98.975 E1.05815
G1 X128.073 Y98.975 E1.11425
G1 X125.198 Y98.806 E0.16981
G1 X122.377 Y98.306 E0.16890
G1 X119.634 Y97.478 E0.16890
G1 X117.006 Y96.336 E0.16890
G1 X114.500 Y94.878 E0.17094
G1 X112.678 Y93.853 E0.12323
G1 X110.693 Y93.092 E0.12527
G1 X108.619 Y92.629 E0.12527
G1 X106.519 Y92.475 E0.12414
G1 X73.481 Y92.475 E1.94762
G1 X71.381 Y92.629 E0.12414
G1 X69.307 Y93.092 E0.12527
G1 X67.322 Y93.853 E0.12527
G1 X65.500 Y94.878 E0.12323
G1 X62.994 Y96.336 E0.17094
G1 X60.366 Y97.478 E0.16890
G1 X57.623 Y98.306 E0.16890
G1 X54.802 Y98.806 E0.16890
G1 X51.927 Y98.975 E0.16981
G1 X33.025 Y98.975 E1.11425
G1 X33.025 Y81.115 E1.05285
M204 S1250
M73 P8 R16
G1 X33.606 Y81.175 F9000.000
G1 E-2.45000 F4200.000
;WIPE_START
G1 F7200.000
G1 X34.825 Y81.106 E-0.99750
;WIPE_END
G1 E-0.05250 F4200.000
G1 Z0.400 F9000.000
G1 X144.972 Y84.259
G1 Z0.200
G1 E3.50000 F2400.000
M204 S1000
;TYPE:Solid infill
;WIDTH:0.651856
G1 F1200.000
G1 X144.014 Y83.302 E0.08010
G1 X143.153 Y83.302 E0.05092
G1 X144.698 Y84.847 E0.12927
G1 X144.698 Y85.709 E0.05092
G1 X142.291 Y83.302 E0.20129
G1 X141.430 Y83.302 E0.05092
G1 X144.698 Y86.570 E0.27330
G1 X144.698 Y87.431 E0.05092
G1 X140.569 Y83.302 E0.34531
G1 X139.708 Y83.302 E0.05092
G1 X144.698 Y88.292 E0.41733
G1 X144.698 Y89.153 E0.05092
G1 X138.847 Y83.302 E0.48934
G1 X137.986 Y83.302 E0.05092
G1 X144.698 Y90.014 E0.56135
G1 X144.698 Y90.876 E0.05092
G1 X137.124 Y83.302 E0.63337
G1 X136.263 Y83.302 E0.05092
G1 X144.698 Y91.737 E0.70538
G1 X144.698 Y92.598 E0.05092
G1 X135.402 Y83.302 E0.77739
G1 X134.541 Y83.302 E0.05092
G1 X144.698 Y93.459 E0.84941
G1 X144.698 Y94.320 E0.05092
G1 X133.680 Y83.302 E0.92142
G1 X132.819 Y83.302 E0.05092
G1 X144.698 Y95.181 E0.99343
G1 X144.698 Y96.043 E0.05092
G1 X131.957 Y83.302 E1.06544
G1 X131.096 Y83.302 E0.05092
G1 X144.493 Y96.698 E1.12029
G1 X143.632 Y96.698 E0.05092
G1 X130.235 Y83.302 E1.12029
M73 P9 R16
G1 X129.374 Y83.302 E0.05092
G1 X142.771 Y96.698 E1.12029
G1 X141.910 Y96.698 E0.05092
G1 X128.513 Y83.302 E1.12029
G1 X127.679 Y83.329 E0.04935
G1 X141.049 Y96.698 E1.11803
G1 X140.187 Y96.698 E0.05092
G1 X126.865 Y83.376 E1.11404
G1 X126.052 Y83.424 E0.04818
G1 X139.326 Y96.698 E1.11005
G1 X138.465 Y96.698 E0.05092
G1 X125.261 Y83.495 E1.10415
G1 X124.530 Y83.624 E0.04392
G1 X137.604 Y96.698 E1.09330
G1 X136.743 Y96.698 E0.05092
G1 X123.798 Y83.754 E1.08244
G1 X123.067 Y83.884 E0.04392
G1 X135.882 Y96.698 E1.07158
G1 X135.020 Y96.698 E0.05092
G1 X122.390 Y84.068 E1.05618
M73 P10 R16
G1 X121.728 Y84.268 E0.04086
G1 X134.159 Y96.698 E1.03950
G1 X133.298 Y96.698 E0.05092
G1 X121.067 Y84.467 E1.02282
G1 X120.406 Y84.668 E0.04082
G1 X132.437 Y96.698 E1.00603
G1 X131.576 Y96.698 E0.05092
G1 X119.806 Y84.929 E0.98421
G1 X119.206 Y85.190 E0.03870
G1 X130.715 Y96.698 E0.96240
G1 X129.853 Y96.698 E0.05092
G1 X118.605 Y85.451 E0.94058
G1 X118.008 Y85.714 E0.03862
G1 X128.992 Y96.698 E0.91853
G1 X128.140 Y96.698 E0.05038
G1 X117.464 Y86.031 E0.89241
G1 X116.919 Y86.348 E0.03724
G1 X127.216 Y96.644 E0.86101
G1 X126.301 Y96.591 E0.05419
G1 X116.375 Y86.665 E0.83003
G1 X115.831 Y86.982 E0.03724
G1 X125.375 Y96.526 E0.79810
G1 X124.328 Y96.340 E0.06288
G1 X115.282 Y87.294 E0.75642
G1 X114.731 Y87.604 E0.03739
G1 X123.281 Y96.154 E0.71495
M73 P11 R15
G1 X122.906 Y96.087 E0.02249
G1 X122.114 Y95.849 E0.04891
G1 X114.180 Y87.914 E0.66349
G1 X113.626 Y88.222 E0.03745
G1 X120.881 Y95.477 E0.60669
G1 X120.418 Y95.337 E0.02858
G1 X119.467 Y94.924 E0.06134
G1 X113.004 Y88.460 E0.54049
G1 X112.381 Y88.699 E0.03942
G1 X117.912 Y94.230 E0.46248
G1 X115.851 Y93.030 E0.14097
G1 X111.759 Y88.938 E0.34223
G1 X111.352 Y89.093 E0.02573
G1 X111.108 Y89.148 E0.01482
G1 X113.873 Y91.913 E0.23119
G1 X113.648 Y91.787 E0.01520
G1 X112.411 Y91.312 E0.07837
G1 X110.404 Y89.305 E0.16784
G1 X109.700 Y89.462 E0.04265
G1 X111.084 Y90.847 E0.11576
G1 X109.975 Y90.599 E0.06717
G1 X108.996 Y89.620 E0.08192
G1 X108.199 Y89.684 E0.04724
G1 X108.881 Y90.366 E0.05696
G1 X107.951 Y90.297 E0.05510
G1 X107.397 Y89.743 E0.04634
G1 X106.594 Y89.802 E0.04760
G1 X107.022 Y90.229 E0.03576
G1 X106.603 Y90.198 E0.02486
G1 X106.130 Y90.198 E0.02794
G1 X105.733 Y89.802 E0.03319
G1 X104.872 Y89.802 E0.05092
G1 X105.269 Y90.198 E0.03319
G1 X104.408 Y90.198 E0.05092
G1 X104.011 Y89.802 E0.03319
G1 X103.150 Y89.802 E0.05092
G1 X103.547 Y90.198 E0.03319
G1 X102.685 Y90.198 E0.05092
G1 X102.288 Y89.802 E0.03319
G1 X101.427 Y89.802 E0.05092
G1 X101.824 Y90.198 E0.03319
G1 X100.963 Y90.198 E0.05092
G1 X100.566 Y89.802 E0.03319
G1 X99.705 Y89.802 E0.05092
G1 X100.102 Y90.198 E0.03319
G1 X99.241 Y90.198 E0.05092
G1 X98.844 Y89.802 E0.03319
G1 X97.983 Y89.802 E0.05092
G1 X98.380 Y90.198 E0.03319
G1 X97.518 Y90.198 E0.05092
G1 X97.121 Y89.802 E0.03319
G1 X96.260 Y89.802 E0.05092
G1 X96.657 Y90.198 E0.03319
G1 X95.796 Y90.198 E0.05092
G1 X95.399 Y89.802 E0.03319
G1 X94.538 Y89.802 E0.05092
G1 X94.935 Y90.198 E0.03319
G1 X94.074 Y90.198 E0.05092
G1 X93.677 Y89.802 E0.03319
G1 X92.816 Y89.802 E0.05092
G1 X93.213 Y90.198 E0.03319
G1 X92.351 Y90.198 E0.05092
G1 X91.954 Y89.802 E0.03319
G1 X91.093 Y89.802 E0.05092
G1 X91.490 Y90.198 E0.03319
G1 X90.629 Y90.198 E0.05092
G1 X90.232 Y89.802 E0.03319
G1 X89.371 Y89.802 E0.05092
G1 X89.768 Y90.198 E0.03319
G1 X88.907 Y90.198 E0.05092
G1 X88.510 Y89.802 E0.03319
G1 X87.649 Y89.802 E0.05092
G1 X88.046 Y90.198 E0.03319
G1 X87.184 Y90.198 E0.05092
G1 X86.787 Y89.802 E0.03319
G1 X85.926 Y89.802 E0.05092
G1 X86.323 Y90.198 E0.03319
G1 X85.462 Y90.198 E0.05092
G1 X85.065 Y89.802 E0.03319
G1 X84.204 Y89.802 E0.05092
G1 X84.601 Y90.198 E0.03319
G1 X83.740 Y90.198 E0.05092
G1 X83.343 Y89.802 E0.03319
G1 X82.482 Y89.802 E0.05092
G1 X82.879 Y90.198 E0.03319
G1 X82.017 Y90.198 E0.05092
G1 X81.620 Y89.802 E0.03319
G1 X80.759 Y89.802 E0.05092
G1 X81.156 Y90.198 E0.03319
G1 X80.295 Y90.198 E0.05092
G1 X79.898 Y89.802 E0.03319
G1 X79.037 Y89.802 E0.05092
G1 X79.434 Y90.198 E0.03319
G1 X78.573 Y90.198 E0.05092
G1 X78.176 Y89.802 E0.03319
G1 X77.315 Y89.802 E0.05092
G1 X77.712 Y90.198 E0.03319
G1 X76.850 Y90.198 E0.05092
G1 X76.453 Y89.802 E0.03319
G1 X75.592 Y89.802 E0.05092
G1 X75.989 Y90.198 E0.03319
G1 X75.128 Y90.198 E0.05092
G1 X74.731 Y89.802 E0.03319
G1 X73.870 Y89.802 E0.05092
G1 X74.267 Y90.198 E0.03319
G1 X73.406 Y90.198 E0.05092
G1 X72.978 Y89.771 E0.03576
G1 X72.049 Y89.703 E0.05510
G1 X72.603 Y90.257 E0.04634
G1 X71.801 Y90.316 E0.04757
G1 X71.119 Y89.634 E0.05696
G1 X70.025 Y89.401 E0.06619
G1 X71.004 Y90.380 E0.08192
G1 X70.300 Y90.538 E0.04265
G1 X68.916 Y89.153 E0.11576
G1 X68.648 Y89.093 E0.01626
G1 X67.589 Y88.688 E0.06703
G1 X69.596 Y90.695 E0.16784
G1 X68.892 Y90.852 E0.04265
G1 X66.128 Y88.087 E0.23119
G1 X64.149 Y86.970 E0.13437
G1 X68.241 Y91.062 E0.34223
G1 X67.619 Y91.301 E0.03942
G1 X62.088 Y85.770 E0.46247
G1 X61.964 Y85.698 E0.00848
G1 X60.533 Y85.076 E0.09229
G1 X66.996 Y91.540 E0.54049
G1 X66.374 Y91.778 E0.03942
G1 X59.119 Y84.523 E0.60669
G1 X57.886 Y84.151 E0.07614
G1 X65.820 Y92.086 E0.66349
M73 P12 R15
G1 X65.269 Y92.396 E0.03739
G1 X56.719 Y83.846 E0.71494
G1 X55.672 Y83.660 E0.06288
G1 X64.718 Y92.706 E0.75642
G1 X64.169 Y93.018 E0.03733
G1 X54.625 Y83.474 E0.79810
G1 X53.699 Y83.409 E0.05490
G1 X63.625 Y93.335 E0.83002
G1 X63.081 Y93.652 E0.03724
G1 X52.784 Y83.356 E0.86100
G1 X51.870 Y83.302 E0.05419
G1 X62.536 Y93.969 E0.89198
G1 X61.992 Y94.286 E0.03724
G1 X51.008 Y83.302 E0.91853
G1 X50.147 Y83.302 E0.05092
G1 X61.395 Y94.549 E0.94058
G1 X60.794 Y94.810 E0.03870
G1 X49.286 Y83.302 E0.96240
G1 X48.424 Y83.302 E0.05092
G1 X60.194 Y95.071 E0.98421
G1 X59.594 Y95.332 E0.03870
G1 X47.563 Y83.302 E1.00603
G1 X46.702 Y83.302 E0.05092
G1 X58.933 Y95.533 E1.02281
G1 X58.272 Y95.732 E0.04086
G1 X45.841 Y83.302 E1.03950
M73 P13 R15
G1 X44.980 Y83.302 E0.05092
G1 X57.610 Y95.932 E1.05618
G1 X57.094 Y96.087 E0.03187
G1 X56.933 Y96.116 E0.00967
G1 X44.119 Y83.302 E1.07158
G1 X43.257 Y83.302 E0.05092
G1 X56.202 Y96.246 E1.08244
G1 X55.470 Y96.376 E0.04392
G1 X42.396 Y83.302 E1.09330
G1 X41.535 Y83.302 E0.05092
G1 X54.739 Y96.505 E1.10415
G1 X54.536 Y96.542 E0.01221
G1 X53.948 Y96.576 E0.03479
G1 X40.674 Y83.302 E1.11005
G1 X39.813 Y83.302 E0.05092
G1 X53.135 Y96.624 E1.11404
G1 X52.321 Y96.671 E0.04818
G1 X38.952 Y83.302 E1.11803
G1 X38.090 Y83.302 E0.05092
G1 X51.487 Y96.698 E1.12029
G1 X50.626 Y96.698 E0.05092
G1 X37.229 Y83.302 E1.12029
G1 X36.368 Y83.302 E0.05092
G1 X49.765 Y96.698 E1.12029
M73 P14 R15
G1 X48.904 Y96.698 E0.05092
G1 X35.507 Y83.302 E1.12029
G1 X35.302 Y83.302 E0.01214
G1 X35.302 Y83.957 E0.03878
G1 X48.043 Y96.698 E1.06545
G1 X47.181 Y96.698 E0.05092
G1 X35.302 Y84.819 E0.99343
G1 X35.302 Y85.680 E0.05092
G1 X46.320 Y96.698 E0.92142
G1 X45.459 Y96.698 E0.05092
G1 X35.302 Y86.541 E0.84941
G1 X35.302 Y87.402 E0.05092
G1 X44.598 Y96.698 E0.77740
G1 X43.737 Y96.698 E0.05092
G1 X35.302 Y88.263 E0.70538
G1 X35.302 Y89.124 E0.05092
G1 X42.876 Y96.698 E0.63337
