; generated by PrusaSlicer 2.3.0+win64 on 2021-04-09 at 02:49:27 UTC


;
;

;
;
; 

; external perimeters extrusion width = 0.65mm
; perimeters extrusion width = 0.65mm
; infill extrusion width = 0.65mm
; solid infill extrusion width = 0.65mm
; top infill extrusion width = 0.60mm
; first layer extrusion width = 0.65mm

M73 P0 R20
M201 X1250 Y1250 Z400 E5000 ; sets maximum accelerations, mm/sec^2
M203 X180 Y180 Z12 E80 ; sets maximum feedrates, mm/sec
M204 P1250 R1250 T1250 ; sets acceleration (P, T) and retract acceleration (R), mm/sec^2
M205 X8.00 Y8.00 Z2.00 E10.00 ; sets the jerk limits, mm/sec
M205 S0 T0 ; sets the minimum extruding and travel feed rate, mm/sec
M107
;TYPE:Custom
M301 P13.54 I0.98 D46.58
G90 ; use absolute coordinates
M83 ; extruder relative mode
M104 S170 ; set extruder temp for bed leveling
M140 S60 ; set bed temp
M109 R170 ; wait for bed leveling temp
M190 S60 ; wait for bed temp
G28 ; home all without mesh bed level
G29 ; mesh bed leveling 
M104 S215 ; set extruder temp
G92 E0.0
G1 Y-2.0 X179 F2400
G1 Z3 F720
M109 S215 ; wait for extruder temp

; intro line
G1 X170 F1000
G1 Z0.2 F720
G1 X110.0 E8.0 F900
G1 X40.0 E10.0 F700
G92 E0.0

M221 S95 ; set flow
G21 ; set units to millimeters
G90 ; use absolute coordinates
M83 ; use relative distances for extrusion
M900 K0.12 ; Filament gcode
;LAYER_CHANGE
;Z:0.2
;HEIGHT:0.2
;BEFORE_LAYER_CHANGE
G92 E0.0
;0.2


M73 P1 R20
G1 E-3.50000 F4200.000
G1 Z0.200 F9000.000
;AFTER_LAYER_CHANGE
;0.2
G1 Z0.400
G1 X32.018 Y77.938
G1 Z0.200
G1 E3.50000 F2400.000
M204 S1000
;TYPE:Skirt
;WIDTH:0.65
G1 F1200.000
G1 X147.504 Y77.893 E6.80793
G1 X148.488 Y78.087 E0.05912
G1 X149.326 Y78.639 E0.05912
G1 X149.895 Y79.469 E0.05935
G1 X150.107 Y80.450 E0.05912
G1 X150.095 Y99.755 E1.13804
G1 X149.881 Y100.561 E0.04917
G1 X149.422 Y101.262 E0.04940
G1 X148.767 Y101.779 E0.04917
G1 X147.982 Y102.062 E0.04917
G1 X32.452 Y102.107 E6.81052
M73 P2 R20
G1 X31.583 Y101.940 E0.05219
G1 X30.819 Y101.493 E0.05219
G1 X30.249 Y100.815 E0.05219
G1 X29.938 Y99.982 E0.05242
G1 X29.904 Y80.257 E1.16281
G1 X30.115 Y79.446 E0.04940
G1 X30.573 Y78.744 E0.04940
G1 X31.230 Y78.223 E0.04940
G1 X31.933 Y77.969 E0.04410
M204 S1250
; printing object body990734 id:0 copy 0
G1 E-2.45000 F4200.000
;WIPE_START
G1 F7200.000
G1 X33.733 Y77.967 E-0.99750
;WIPE_END
G1 E-0.05250 F4200.000
G1 Z0.400 F9000.000
G1 X35.453 Y83.453
G1 Z0.200
G1 E3.50000 F2400.000
M204 S1000
;TYPE:Perimeter
G1 F1200.000
G1 X51.855 Y83.453 E0.96691
G1 X54.518 Y83.609 E0.15722
G1 X57.059 Y84.060 E0.15212
G1 X59.529 Y84.805 E0.15212
G1 X61.896 Y85.834 E0.15212
G1 X64.294 Y87.230 E0.16360
G1 X66.287 Y88.351 E0.13478
G1 X68.604 Y89.239 E0.14627
G1 X71.025 Y89.780 E0.14627
G1 X73.392 Y89.953 E0.13988
G1 X106.608 Y89.953 E1.95810
G1 X108.975 Y89.780 E0.13988
G1 X111.396 Y89.239 E0.14627
G1 X113.713 Y88.351 E0.14627
G1 X115.706 Y87.230 E0.13478
G1 X118.104 Y85.834 E0.16360
G1 X120.471 Y84.805 E0.15212
G1 X122.941 Y84.060 E0.15212
G1 X125.482 Y83.609 E0.15212
G1 X128.145 Y83.453 E0.15722
G1 X144.547 Y83.453 E0.96691
M73 P3 R20
G1 X144.547 Y96.547 E0.77186
G1 X128.145 Y96.547 E0.96691
G1 X125.482 Y96.391 E0.15722
G1 X122.941 Y95.940 E0.15212
G1 X120.471 Y95.195 E0.15212
G1 X118.104 Y94.166 E0.15212
G1 X115.706 Y92.770 E0.16360
G1 X113.713 Y91.649 E0.13478
G1 X111.396 Y90.761 E0.14627
G1 X108.975 Y90.220 E0.14627
G1 X106.608 Y90.047 E0.13988
G1 X73.392 Y90.047 E1.95810
G1 X71.025 Y90.220 E0.13988
G1 X68.604 Y90.761 E0.14627
G1 X66.287 Y91.649 E0.14627
G1 X64.294 Y92.770 E0.13478
G1 X61.896 Y94.166 E0.16360
G1 X59.529 Y95.195 E0.15212
G1 X57.059 Y95.940 E0.15212
G1 X54.518 Y96.391 E0.15212
G1 X51.855 Y96.547 E0.15722
G1 X35.453 Y96.547 E0.96691
G1 X35.453 Y83.543 E0.76655
M204 S1250
G1 X34.846 Y82.846 F9000.000
M204 S1000
G1 F1200.000
G1 X51.873 Y82.846 E1.00374
G1 X54.589 Y83.005 E0.16037
G1 X57.200 Y83.469 E0.15631
G1 X59.739 Y84.234 E0.15631
G1 X62.170 Y85.291 E0.15631
G1 X64.596 Y86.703 E0.16544
G1 X66.546 Y87.800 E0.13189
G1 X68.779 Y88.656 E0.14102
G1 X71.114 Y89.178 E0.14102
G1 X73.414 Y89.346 E0.13594
G1 X106.586 Y89.346 E1.95548
G1 X108.886 Y89.178 E0.13594
G1 X111.221 Y88.656 E0.14102
G1 X113.454 Y87.800 E0.14102
G1 X115.404 Y86.703 E0.13189
G1 X117.830 Y85.291 E0.16544
G1 X120.261 Y84.234 E0.15631
G1 X122.800 Y83.469 E0.15631
G1 X125.411 Y83.005 E0.15631
G1 X128.127 Y82.846 E0.16037
G1 X145.154 Y82.846 E1.00374
M73 P4 R20
G1 X145.154 Y97.154 E0.84343
M73 P4 R19
G1 X128.127 Y97.154 E1.00374
G1 X125.411 Y96.995 E0.16037
G1 X122.800 Y96.531 E0.15631
G1 X120.261 Y95.766 E0.15631
G1 X117.830 Y94.709 E0.15631
G1 X115.404 Y93.297 E0.16544
G1 X113.454 Y92.200 E0.13189
G1 X111.221 Y91.344 E0.14102
G1 X108.886 Y90.822 E0.14102
G1 X106.586 Y90.654 E0.13594
G1 X73.414 Y90.654 E1.95548
G1 X71.114 Y90.822 E0.13594
G1 X68.779 Y91.344 E0.14102
G1 X66.546 Y92.200 E0.14102
G1 X64.596 Y93.297 E0.13189
G1 X62.170 Y94.709 E0.16544
G1 X59.739 Y95.766 E0.15631
G1 X57.200 Y96.531 E0.15631
G1 X54.589 Y96.995 E0.15631
G1 X51.873 Y97.154 E0.16037
G1 X34.846 Y97.154 E1.00374
G1 X34.846 Y82.936 E0.83812
M204 S1250
G1 X34.239 Y82.239 F9000.000
M204 S1000
G1 F1200.000
G1 X51.891 Y82.239 E1.04058
G1 X54.660 Y82.402 E0.16352
G1 X57.341 Y82.877 E0.16051
G1 X59.948 Y83.663 E0.16051
G1 X62.445 Y84.749 E0.16051
G1 X64.897 Y86.176 E0.16727
G1 X66.805 Y87.249 E0.12900
G1 X68.955 Y88.074 E0.13577
G1 X71.203 Y88.575 E0.13577
G1 X73.436 Y88.739 E0.13201
G1 X106.564 Y88.739 E1.95286
G1 X108.797 Y88.575 E0.13201
G1 X111.045 Y88.074 E0.13577
G1 X113.195 Y87.249 E0.13577
G1 X115.103 Y86.176 E0.12900
G1 X117.555 Y84.749 E0.16727
G1 X120.052 Y83.663 E0.16051
G1 X122.659 Y82.877 E0.16051
M73 P5 R19
G1 X125.340 Y82.402 E0.16051
G1 X128.109 Y82.239 E0.16352
G1 X145.761 Y82.239 E1.04058
G1 X145.761 Y97.761 E0.91500
G1 X128.109 Y97.761 E1.04058
G1 X125.340 Y97.598 E0.16352
G1 X122.659 Y97.123 E0.16051
G1 X120.052 Y96.337 E0.16051
G1 X117.555 Y95.251 E0.16051
G1 X115.103 Y93.824 E0.16727
G1 X113.195 Y92.751 E0.12900
G1 X111.045 Y91.926 E0.13577
G1 X108.797 Y91.425 E0.13577
G1 X106.564 Y91.261 E0.13201
G1 X73.436 Y91.261 E1.95286
G1 X71.203 Y91.425 E0.13201
G1 X68.955 Y91.926 E0.13577
G1 X66.805 Y92.751 E0.13577
G1 X64.897 Y93.824 E0.12900
G1 X62.445 Y95.251 E0.16727
G1 X59.948 Y96.337 E0.16051
G1 X57.341 Y97.123 E0.16051
G1 X54.660 Y97.598 E0.16051
G1 X51.891 Y97.761 E0.16352
G1 X34.239 Y97.761 E1.04058
G1 X34.239 Y82.329 E0.90970
M204 S1250
G1 X33.632 Y81.632 F9000.000
M204 S1000
G1 F1200.000
G1 X51.909 Y81.632 E1.07741
G1 X54.731 Y81.798 E0.16666
G1 X57.482 Y82.286 E0.16471
G1 X60.157 Y83.093 E0.16471
G1 X62.720 Y84.206 E0.16471
G1 X65.199 Y85.649 E0.16911
G1 X67.063 Y86.698 E0.12612
G1 X69.131 Y87.491 E0.13052
G1 X71.292 Y87.973 E0.13052
G1 X73.459 Y88.132 E0.12807
G1 X106.541 Y88.132 E1.95024
G1 X108.708 Y87.973 E0.12807
M73 P6 R19
G1 X110.869 Y87.491 E0.13052
G1 X112.937 Y86.698 E0.13052
G1 X114.801 Y85.649 E0.12612
G1 X117.280 Y84.206 E0.16911
G1 X119.843 Y83.093 E0.16471
G1 X122.518 Y82.286 E0.16471
G1 X125.269 Y81.798 E0.16471
G1 X128.091 Y81.632 E0.16666
G1 X146.368 Y81.632 E1.07741
G1 X146.368 Y98.368 E0.98658
G1 X128.091 Y98.368 E1.07741
G1 X125.269 Y98.202 E0.16666
G1 X122.518 Y97.714 E0.16471
G1 X119.843 Y96.907 E0.16471
G1 X117.280 Y95.794 E0.16471
G1 X114.801 Y94.351 E0.16911
G1 X112.937 Y93.302 E0.12612
G1 X110.869 Y92.509 E0.13052
G1 X108.708 Y92.027 E0.13052
G1 X106.541 Y91.868 E0.12807
G1 X73.459 Y91.868 E1.95024
G1 X71.292 Y92.027 E0.12807
G1 X69.131 Y92.509 E0.13052
G1 X67.063 Y93.302 E0.13052
G1 X65.199 Y94.351 E0.12612
G1 X62.720 Y95.794 E0.16911
G1 X60.157 Y96.907 E0.16471
G1 X57.482 Y97.714 E0.16471
G1 X54.731 Y98.202 E0.16471
G1 X51.909 Y98.368 E0.16666
G1 X33.632 Y98.368 E1.07741
G1 X33.632 Y81.722 E0.98127
M204 S1250
G1 X33.025 Y81.025 F9000.000
M204 S1000
;TYPE:External perimeter
G1 F1200.000
G1 X51.927 Y81.025 E1.11425
G1 X54.802 Y81.194 E0.16981
G1 X57.623 Y81.694 E0.16890
G1 X60.366 Y82.522 E0.16890
G1 X62.994 Y83.664 E0.16890
G1 X65.500 Y85.122 E0.17094
G1 X67.322 Y86.147 E0.12323
G1 X69.307 Y86.908 E0.12527
G1 X71.381 Y87.371 E0.12527
G1 X73.481 Y87.525 E0.12414
G1 X106.519 Y87.525 E1.94762
M73 P7 R19
G1 X108.619 Y87.371 E0.12414
G1 X110.693 Y86.908 E0.12527
G1 X112.678 Y86.147 E0.12527
G1 X114.500 Y85.122 E0.12323
G1 X117.006 Y83.664 E0.17094
G1 X119.634 Y82.522 E0.16890
G1 X122.377 Y81.694 E0.16890
G1 X125.198 Y81.194 E0.16890
G1 X128.073 Y81.025 E0.16981
G1 X146.975 Y81.025 E1.11425
G1 X146.975 Y98.975 E1.05815
G1 X128.073 Y98.975 E1.11425
G1 X125.198 Y98.806 E0.16981
G1 X122.377 Y98.306 E0.16890
G1 X119.634 Y97.478 E0.16890
G1 X117.006 Y96.336 E0.16890
G1 X114.500 Y94.878 E0.17094
G1 X112.678 Y93.853 E0.12323
G1 X110.693 Y93.092 E0.12527
G1 X108.619 Y92.629 E0.12527
G1 X106.519 Y92.475 E0.12414
G1 X73.481 Y92.475 E1.94762
G1 X71.381 Y92.629 E0.12414
G1 X69.307 Y93.092 E0.12527
G1 X67.322 Y93.853 E0.12527
G1 X65.500 Y94.878 E0.12323
G1 X62.994 Y96.336 E0.17094
G1 X60.366 Y97.478 E0.16890
G1 X57.623 Y98.306 E0.16890
G1 X54.802 Y98.806 E0.16890
G1 X51.927 Y98.975 E0.16981
G1 X33.025 Y98.975 E1.11425
G1 X33.025 Y81.115 E1.05285
M204 S1250
G1 X33.606 Y81.175 F9000.000
G1 E-2.45000 F4200.000
;WIPE_START
G1 F7200.000
G1 X34.825 Y81.106 E-0.99750
;WIPE_END
G1 E-0.05250 F4200.000
G1 Z0.400 F9000.000
G1 X69.028 Y89.520
G1 Z0.200
G1 E3.50000 F2400.000
M204 S1000
;TYPE:Solid infill
;WIDTH:0.655708
G1 F1200.000
G1 X69.583 Y90.076 E0.04672
G1 X68.875 Y90.234 E0.04319
G1 X68.221 Y89.580 E0.05502
G1 X66.816 Y89.041 E0.08956
G1 X68.202 Y90.427 E0.11663
G1 X67.575 Y90.667 E0.03992
G1 X65.131 Y88.223 E0.20571
G1 X63.107 Y87.066 E0.13874
G1 X66.949 Y90.908 E0.32332
M73 P8 R19
G1 X66.322 Y91.148 E0.03992
G1 X61.204 Y86.030 E0.43068
G1 X59.672 Y85.364 E0.09945
G1 X65.741 Y91.433 E0.51078
G1 X65.187 Y91.745 E0.03787
G1 X58.374 Y84.933 E0.57332
G1 X57.133 Y84.559 E0.07711
G1 X64.632 Y92.058 E0.63105
G1 X64.078 Y92.370 E0.03787
G1 X56.052 Y84.344 E0.67534
G1 X54.999 Y84.157 E0.06368
G1 X63.530 Y92.688 E0.71790
G1 X62.982 Y93.007 E0.03771
G1 X54.011 Y84.036 E0.75495
G1 X53.090 Y83.982 E0.05487
G1 X62.434 Y93.326 E0.78633
G1 X61.886 Y93.645 E0.03771
G1 X52.169 Y83.928 E0.81770
G1 X51.284 Y83.909 E0.05272
G1 X61.302 Y93.927 E0.84311
G1 X60.698 Y94.190 E0.03919
G1 X50.417 Y83.909 E0.86520
G1 X49.550 Y83.909 E0.05157
G1 X60.094 Y94.453 E0.88729
G1 X59.490 Y94.715 E0.03919
G1 X48.684 Y83.909 E0.90939
G1 X47.817 Y83.909 E0.05157
G1 X58.836 Y94.928 E0.92730
G1 X58.171 Y95.129 E0.04138
G1 X46.951 Y83.909 E0.94419
G1 X46.084 Y83.909 E0.05157
G1 X57.505 Y95.329 E0.96109
G1 X56.827 Y95.518 E0.04187
G1 X45.217 Y83.909 E0.97697
M73 P9 R18
G1 X44.351 Y83.909 E0.05157
G1 X56.091 Y95.649 E0.98797
G1 X55.355 Y95.780 E0.04448
G1 X43.484 Y83.909 E0.99896
G1 X42.617 Y83.909 E0.05157
G1 X54.619 Y95.910 E1.00996
G1 X54.465 Y95.938 E0.00933
G1 X53.818 Y95.976 E0.03855
G1 X41.751 Y83.909 E1.01546
G1 X40.884 Y83.909 E0.05157
G1 X52.999 Y96.024 E1.01950
G1 X52.181 Y96.072 E0.04879
G1 X40.018 Y83.909 E1.02354
G1 X39.151 Y83.909 E0.05157
G1 X51.334 Y96.091 E1.02521
G1 X50.467 Y96.091 E0.05157
G1 X38.284 Y83.909 E1.02521
G1 X37.418 Y83.909 E0.05157
G1 X49.601 Y96.091 E1.02521
G1 X48.734 Y96.091 E0.05157
G1 X36.551 Y83.909 E1.02521
G1 X35.909 Y83.909 E0.03824
G1 X35.909 Y84.133 E0.01333
G1 X47.867 Y96.091 E1.00635
G1 X47.001 Y96.091 E0.05157
G1 X35.909 Y84.999 E0.93343
G1 X35.909 Y85.866 E0.05157
G1 X46.134 Y96.091 E0.86050
G1 X45.268 Y96.091 E0.05157
G1 X35.909 Y86.732 E0.78757
M73 P10 R18
G1 X35.909 Y87.599 E0.05157
G1 X44.401 Y96.091 E0.71464
G1 X43.534 Y96.091 E0.05157
G1 X35.909 Y88.466 E0.64172
G1 X35.909 Y89.332 E0.05157
G1 X42.668 Y96.091 E0.56879
G1 X41.801 Y96.091 E0.05157
G1 X35.909 Y90.199 E0.49586
G1 X35.909 Y91.066 E0.05157
G1 X40.934 Y96.091 E0.42294
G1 X40.068 Y96.091 E0.05157
G1 X35.909 Y91.932 E0.35001
G1 X35.909 Y92.799 E0.05157
G1 X39.201 Y96.091 E0.27708
G1 X38.335 Y96.091 E0.05157
G1 X35.909 Y93.665 E0.20415
G1 X35.909 Y94.532 E0.05157
G1 X37.468 Y96.091 E0.13123
G1 X36.601 Y96.091 E0.05157
G1 X35.635 Y95.125 E0.08129
M204 S1250
G1 E-2.45000 F4200.000
;WIPE_START
G1 F7200.000
G1 X36.601 Y96.091 E-0.75704
G1 X37.035 Y96.091 E-0.24046
;WIPE_END
G1 E-0.05250 F4200.000
G1 Z0.400 F9000.000
G1 X144.365 Y84.875
G1 Z0.200
G1 E3.50000 F2400.000
M204 S1000
G1 F1200.000
G1 X143.398 Y83.909 E0.08130
G1 X142.532 Y83.909 E0.05157
G1 X144.091 Y85.468 E0.13124
G1 X144.091 Y86.335 E0.05157
G1 X141.665 Y83.909 E0.20416
G1 X140.799 Y83.909 E0.05157
G1 X144.091 Y87.201 E0.27709
G1 X144.091 Y88.068 E0.05157
G1 X139.932 Y83.909 E0.35002
G1 X139.065 Y83.909 E0.05157
G1 X144.091 Y88.935 E0.42295
G1 X144.091 Y89.801 E0.05157
G1 X138.199 Y83.909 E0.49587
G1 X137.332 Y83.909 E0.05157
G1 X144.091 Y90.668 E0.56880
G1 X144.091 Y91.534 E0.05157
G1 X136.466 Y83.909 E0.64173
G1 X135.599 Y83.909 E0.05157
G1 X144.091 Y92.401 E0.71465
G1 X144.091 Y93.268 E0.05157
G1 X134.732 Y83.909 E0.78758
G1 X133.866 Y83.909 E0.05157
G1 X144.091 Y94.134 E0.86051
G1 X144.091 Y95.001 E0.05157
G1 X132.999 Y83.909 E0.93344
G1 X132.133 Y83.909 E0.05157
G1 X144.091 Y95.867 E1.00636
G1 X144.091 Y96.091 E0.01332
G1 X143.449 Y96.091 E0.03824
G1 X131.266 Y83.909 E1.02521
M73 P11 R18
G1 X130.399 Y83.909 E0.05157
G1 X142.582 Y96.091 E1.02521
G1 X141.715 Y96.091 E0.05157
G1 X129.533 Y83.909 E1.02521
G1 X128.666 Y83.909 E0.05157
G1 X140.849 Y96.091 E1.02521
G1 X139.982 Y96.091 E0.05157
G1 X127.819 Y83.928 E1.02353
G1 X127.001 Y83.976 E0.04879
G1 X139.116 Y96.091 E1.01950
G1 X138.249 Y96.091 E0.05157
G1 X126.182 Y84.024 E1.01546
G1 X125.535 Y84.062 E0.03855
G1 X125.381 Y84.090 E0.00934
G1 X137.382 Y96.091 E1.00996
G1 X136.516 Y96.091 E0.05157
G1 X124.645 Y84.220 E0.99896
G1 X123.909 Y84.351 E0.04448
G1 X135.649 Y96.091 E0.98797
G1 X134.783 Y96.091 E0.05157
G1 X123.173 Y84.482 E0.97697
G1 X122.495 Y84.671 E0.04187
G1 X133.916 Y96.091 E0.96108
G1 X133.049 Y96.091 E0.05157
G1 X121.829 Y84.871 E0.94419
G1 X121.163 Y85.072 E0.04138
G1 X132.183 Y96.091 E0.92729
M73 P12 R18
G1 X131.316 Y96.091 E0.05157
G1 X120.510 Y85.285 E0.90938
G1 X119.906 Y85.547 E0.03919
G1 X130.449 Y96.091 E0.88729
G1 X129.583 Y96.091 E0.05157
G1 X119.302 Y85.810 E0.86520
G1 X118.697 Y86.073 E0.03919
G1 X128.716 Y96.091 E0.84310
G1 X127.830 Y96.072 E0.05272
G1 X118.114 Y86.355 E0.81770
G1 X117.566 Y86.674 E0.03771
G1 X126.910 Y96.018 E0.78632
G1 X125.989 Y95.964 E0.05487
G1 X117.018 Y86.993 E0.75495
G1 X116.470 Y87.312 E0.03771
G1 X125.001 Y95.843 E0.71790
G1 X123.948 Y95.656 E0.06368
G1 X115.922 Y87.631 E0.67534
G1 X115.368 Y87.943 E0.03787
G1 X122.867 Y95.441 E0.63105
G1 X121.626 Y95.067 E0.07711
G1 X114.813 Y88.255 E0.57331
G1 X114.259 Y88.567 E0.03787
G1 X120.328 Y94.636 E0.51077
G1 X118.795 Y93.970 E0.09945
G1 X113.678 Y88.852 E0.43067
G1 X113.051 Y89.092 E0.03992
G1 X116.893 Y92.934 E0.32330
G1 X114.869 Y91.777 E0.13874
G1 X112.425 Y89.333 E0.20569
G1 X111.798 Y89.573 E0.03992
G1 X113.184 Y90.959 E0.11662
G1 X111.779 Y90.420 E0.08956
G1 X111.125 Y89.766 E0.05501
G1 X110.417 Y89.924 E0.04319
G1 X110.972 Y90.479 E0.04672
M204 S1250
; stop printing object body990734 id:0 copy 0
M106 S255
;LAYER_CHANGE
;Z:0.4
;HEIGHT:0.2
;BEFORE_LAYER_CHANGE
G92 E0.0
;0.4


G1 E-2.45000 F4200.000
;WIPE_START
G1 F7200.000
G1 X110.417 Y89.924 E-0.43508
G1 X111.125 Y89.766 E-0.40227
G1 X111.329 Y89.971 E-0.16016
;WIPE_END
G1 E-0.05250 F4200.000
G1 Z0.400 F9000.000
;AFTER_LAYER_CHANGE
;0.4
G1 Z0.600
G1 X148.488 Y78.087
G1 Z0.400
G1 E3.50000 F2400.000
;TYPE:Skirt
;WIDTH:0.65
G1 X149.326 Y78.639 E0.05912
G1 X149.895 Y79.469 E0.05935
G1 X150.107 Y80.450 E0.05912
G1 X150.095 Y99.755 E1.13804
G1 X149.881 Y100.561 E0.04917
G1 X149.422 Y101.262 E0.04940
G1 X148.767 Y101.779 E0.04917
G1 X147.982 Y102.062 E0.04917
G1 X32.452 Y102.107 E6.81052
M73 P13 R18
G1 X31.583 Y101.940 E0.05219
G1 X30.819 Y101.493 E0.05219
G1 X30.249 Y100.815 E0.05219
G1 X29.938 Y99.982 E0.05242
G1 X29.904 Y80.257 E1.16281
G1 X30.115 Y79.446 E0.04940
G1 X30.573 Y78.744 E0.04940
G1 X31.230 Y78.223 E0.04940
G1 X32.018 Y77.938 E0.04940
G1 X147.504 Y77.893 E6.80793
G1 X148.400 Y78.070 E0.05382
