; generated by PrusaSlicer 2.3.0+win64 on 2021-04-08 at 19:41:08 UTC


;
;

;
;
; 

; external perimeters extrusion width = 0.45mm
; perimeters extrusion width = 0.45mm
; infill extrusion width = 0.45mm
; solid infill extrusion width = 0.45mm
; top infill extrusion width = 0.40mm
; first layer extrusion width = 0.42mm

M73 P0 R18
M201 X1250 Y1250 Z400 E5000 ; sets maximum accelerations, mm/sec^2
M203 X180 Y180 Z12 E80 ; sets maximum feedrates, mm/sec
M204 P1250 R1250 T1250 ; sets acceleration (P, T) and retract acceleration (R), mm/sec^2
M205 X8.00 Y8.00 Z2.00 E10.00 ; sets the jerk limits, mm/sec
M205 S0 T0 ; sets the minimum extruding and travel feed rate, mm/sec
M107
;TYPE:Custom
M301 P13.54 I0.98 D46.58
G90 ; use absolute coordinates
M83 ; extruder relative mode
M104 S170 ; set extruder temp for bed leveling
M140 S60 ; set bed temp
M109 R170 ; wait for bed leveling temp
M190 S60 ; wait for bed temp
G28 ; home all without mesh bed level
G29 ; mesh bed leveling 
M104 S235 ; set extruder temp
G92 E0.0
G1 Y-2.0 X179 F2400
G1 Z3 F720
M109 S235 ; wait for extruder temp

; intro line
G1 X170 F1000
G1 Z0.2 F720
G1 X110.0 E8.0 F900
G1 X40.0 E10.0 F700
G92 E0.0

M221 S95 ; set flow
G21 ; set units to millimeters
G90 ; use absolute coordinates
M83 ; use relative distances for extrusion
M900 K0.2 ; Filament gcode
;LAYER_CHANGE
;Z:0.2
;HEIGHT:0.2
;BEFORE_LAYER_CHANGE
G92 E0.0
;0.2


M73 P1 R18
G1 E-3.20000 F4200.000
G1 Z0.200 F9000.000
;AFTER_LAYER_CHANGE
;0.2
G1 Z0.400
G1 X32.067 Y78.163
G1 Z0.200
G1 E3.20000 F2400.000
M204 S800
;TYPE:Skirt
;WIDTH:0.42
G1 F1200.000
G1 X147.504 Y78.123 E4.22684
M73 P2 R18
G1 X148.402 Y78.301 E0.03354
G1 X149.167 Y78.805 E0.03354
G1 X149.684 Y79.562 E0.03354
G1 X149.877 Y80.457 E0.03354
G1 X149.867 Y99.717 E0.70522
G1 X149.675 Y100.458 E0.02805
G1 X149.257 Y101.101 E0.02805
G1 X148.654 Y101.578 E0.02819
G1 X147.933 Y101.837 E0.02805
G1 X32.462 Y101.877 E4.22810
G1 X31.665 Y101.726 E0.02970
G1 X30.965 Y101.315 E0.02970
G1 X30.444 Y100.694 E0.02970
G1 X30.163 Y99.933 E0.02970
G1 X30.132 Y80.295 E0.71908
G1 X30.322 Y79.549 E0.02819
G1 X30.740 Y78.902 E0.02819
G1 X31.343 Y78.424 E0.02819
G1 X32.011 Y78.183 E0.02599
M204 S1250
; printing object body990734 id:0 copy 0
G1 E-2.24000 F4200.000
;WIPE_START
G1 F7200.000
G1 X33.656 Y78.182 E-0.91200
;WIPE_END
G1 E-0.04800 F4200.000
G1 Z0.400 F9000.000
G1 X33.287 Y81.287
G1 Z0.200
G1 E3.20000 F2400.000
M204 S800
;TYPE:Perimeter
G1 F1200.000
G1 X51.919 Y81.287 E0.68222
G1 X54.772 Y81.454 E0.10463
G1 X57.562 Y81.950 E0.10379
G1 X60.276 Y82.768 E0.10379
G1 X62.876 Y83.898 E0.10379
G1 X65.370 Y85.350 E0.10569
G1 X67.211 Y86.385 E0.07732
G1 X69.231 Y87.160 E0.07922
G1 X71.342 Y87.631 E0.07922
G1 X73.471 Y87.787 E0.07816
M73 P3 R18
G1 X106.529 Y87.787 E1.21044
G1 X108.658 Y87.631 E0.07816
G1 X110.769 Y87.160 E0.07922
G1 X112.789 Y86.385 E0.07922
G1 X114.630 Y85.350 E0.07732
G1 X117.124 Y83.898 E0.10569
G1 X119.724 Y82.768 E0.10379
G1 X122.438 Y81.950 E0.10379
G1 X125.228 Y81.454 E0.10379
G1 X128.081 Y81.287 E0.10463
G1 X146.713 Y81.287 E0.68222
G1 X146.713 Y98.713 E0.63807
G1 X128.081 Y98.713 E0.68222
G1 X125.228 Y98.546 E0.10463
G1 X122.438 Y98.050 E0.10379
G1 X119.724 Y97.232 E0.10379
G1 X117.124 Y96.102 E0.10379
G1 X114.630 Y94.650 E0.10569
G1 X112.789 Y93.615 E0.07732
G1 X110.769 Y92.840 E0.07922
G1 X108.658 Y92.369 E0.07922
G1 X106.529 Y92.213 E0.07816
G1 X73.471 Y92.213 E1.21044
G1 X71.342 Y92.369 E0.07816
G1 X69.231 Y92.840 E0.07922
G1 X67.211 Y93.615 E0.07922
G1 X65.370 Y94.650 E0.07732
G1 X62.876 Y96.102 E0.10569
G1 X60.276 Y97.232 E0.10379
G1 X57.562 Y98.050 E0.10379
G1 X54.772 Y98.546 E0.10379
G1 X51.919 Y98.713 E0.10463
G1 X33.287 Y98.713 E0.68222
G1 X33.287 Y81.347 E0.63587
M204 S1250
M73 P4 R18
G1 X32.910 Y80.910 F9000.000
M204 S800
;TYPE:External perimeter
G1 F1200.000
G1 X51.930 Y80.910 E0.69644
G1 X54.816 Y81.079 E0.10585
G1 X57.650 Y81.582 E0.10541
G1 X60.406 Y82.413 E0.10541
G1 X63.046 Y83.561 E0.10541
G1 X65.558 Y85.023 E0.10640
G1 X67.371 Y86.043 E0.07620
G1 X69.340 Y86.798 E0.07719
G1 X71.397 Y87.257 E0.07719
G1 X73.485 Y87.410 E0.07664
G1 X106.515 Y87.410 E1.20943
G1 X108.603 Y87.257 E0.07664
G1 X110.660 Y86.798 E0.07719
G1 X112.629 Y86.043 E0.07719
G1 X114.442 Y85.023 E0.07620
G1 X116.954 Y83.561 E0.10640
G1 X119.594 Y82.413 E0.10541
G1 X122.350 Y81.582 E0.10541
G1 X125.184 Y81.079 E0.10541
G1 X128.070 Y80.910 E0.10585
G1 X147.090 Y80.910 E0.69644
G1 X147.090 Y99.090 E0.66568
M73 P4 R17
G1 X128.070 Y99.090 E0.69644
G1 X125.184 Y98.921 E0.10585
G1 X122.350 Y98.418 E0.10541
G1 X119.594 Y97.587 E0.10541
G1 X116.954 Y96.439 E0.10541
G1 X114.442 Y94.977 E0.10640
G1 X112.629 Y93.957 E0.07620
G1 X110.660 Y93.202 E0.07719
G1 X108.603 Y92.743 E0.07719
G1 X106.515 Y92.590 E0.07664
G1 X73.485 Y92.590 E1.20943
G1 X71.397 Y92.743 E0.07664
G1 X69.340 Y93.202 E0.07719
M73 P5 R17
G1 X67.371 Y93.957 E0.07719
G1 X65.558 Y94.977 E0.07620
G1 X63.046 Y96.439 E0.10640
G1 X60.406 Y97.587 E0.10541
G1 X57.650 Y98.418 E0.10541
G1 X54.816 Y98.921 E0.10541
G1 X51.930 Y99.090 E0.10585
G1 X32.910 Y99.090 E0.69644
G1 X32.910 Y80.970 E0.66348
M204 S1250
G1 X33.297 Y81.011 F9000.000
G1 E-2.24000 F4200.000
;WIPE_START
G1 F7200.000
G1 X34.556 Y80.965 E-0.91200
;WIPE_END
G1 E-0.04800 F4200.000
G1 Z0.400 F9000.000
G1 X145.835 Y81.400
G1 Z0.200
G1 E3.20000 F2400.000
M204 S800
;TYPE:Solid infill
;WIDTH:0.421032
G1 F1200.000
G1 X146.430 Y81.995 E0.03088
G1 X146.430 Y82.530 E0.01963
G1 X145.470 Y81.570 E0.04984
G1 X144.936 Y81.570 E0.01963
G1 X146.430 Y83.064 E0.07760
G1 X146.430 Y83.599 E0.01963
G1 X144.401 Y81.570 E0.10537
G1 X143.866 Y81.570 E0.01963
G1 X146.430 Y84.134 E0.13314
G1 X146.430 Y84.669 E0.01963
G1 X143.331 Y81.570 E0.16090
G1 X142.797 Y81.570 E0.01963
G1 X146.430 Y85.203 E0.18867
G1 X146.430 Y85.738 E0.01963
G1 X142.262 Y81.570 E0.21643
G1 X141.727 Y81.570 E0.01963
G1 X146.430 Y86.273 E0.24420
G1 X146.430 Y86.808 E0.01963
G1 X141.192 Y81.570 E0.27196
G1 X140.658 Y81.570 E0.01963
G1 X146.430 Y87.342 E0.29973
G1 X146.430 Y87.877 E0.01963
G1 X140.123 Y81.570 E0.32750
G1 X139.588 Y81.570 E0.01963
G1 X146.430 Y88.412 E0.35526
G1 X146.430 Y88.946 E0.01963
G1 X139.054 Y81.570 E0.38303
G1 X138.519 Y81.570 E0.01963
G1 X146.430 Y89.481 E0.41079
G1 X146.430 Y90.016 E0.01963
G1 X137.984 Y81.570 E0.43856
G1 X137.449 Y81.570 E0.01963
G1 X146.430 Y90.551 E0.46633
G1 X146.430 Y91.085 E0.01963
G1 X136.915 Y81.570 E0.49409
M73 P6 R17
G1 X136.380 Y81.570 E0.01963
G1 X146.430 Y91.620 E0.52186
G1 X146.430 Y92.155 E0.01963
G1 X135.845 Y81.570 E0.54962
G1 X135.310 Y81.570 E0.01963
G1 X146.430 Y92.690 E0.57739
G1 X146.430 Y93.224 E0.01963
G1 X134.776 Y81.570 E0.60515
G1 X134.241 Y81.570 E0.01963
G1 X146.430 Y93.759 E0.63292
G1 X146.430 Y94.294 E0.01963
G1 X133.706 Y81.570 E0.66069
G1 X133.171 Y81.570 E0.01963
G1 X146.430 Y94.829 E0.68845
G1 X146.430 Y95.363 E0.01963
G1 X132.637 Y81.570 E0.71622
G1 X132.102 Y81.570 E0.01963
G1 X146.430 Y95.898 E0.74398
G1 X146.430 Y96.433 E0.01963
G1 X131.567 Y81.570 E0.77175
G1 X131.033 Y81.570 E0.01963
G1 X146.430 Y96.967 E0.79951
G1 X146.430 Y97.502 E0.01963
G1 X130.498 Y81.570 E0.82728
M73 P7 R17
G1 X129.963 Y81.570 E0.01963
G1 X146.430 Y98.037 E0.85505
G1 X146.430 Y98.430 E0.01444
G1 X146.289 Y98.430 E0.00520
G1 X129.428 Y81.570 E0.87546
G1 X128.894 Y81.570 E0.01963
G1 X145.754 Y98.430 E0.87546
G1 X145.219 Y98.430 E0.01963
G1 X128.359 Y81.570 E0.87546
G1 X127.839 Y81.585 E0.01910
G1 X144.684 Y98.430 E0.87470
G1 X144.150 Y98.430 E0.01963
G1 X127.334 Y81.614 E0.87316
G1 X126.829 Y81.644 E0.01858
G1 X143.615 Y98.430 E0.87163
G1 X143.080 Y98.430 E0.01963
G1 X126.324 Y81.673 E0.87009
G1 X125.818 Y81.703 E0.01858
G1 X142.545 Y98.430 E0.86855
M73 P8 R17
G1 X142.011 Y98.430 E0.01963
G1 X125.313 Y81.733 E0.86701
G1 X124.854 Y81.808 E0.01709
G1 X141.476 Y98.430 E0.86310
G1 X140.941 Y98.430 E0.01963
G1 X124.400 Y81.889 E0.85891
G1 X123.946 Y81.969 E0.01693
G1 X140.407 Y98.430 E0.85472
G1 X139.872 Y98.430 E0.01963
G1 X123.492 Y82.050 E0.85054
G1 X123.038 Y82.131 E0.01693
G1 X139.337 Y98.430 E0.84635
G1 X138.802 Y98.430 E0.01963
G1 X122.583 Y82.211 E0.84217
G1 X122.165 Y82.327 E0.01595
G1 X138.268 Y98.430 E0.83613
G1 X137.733 Y98.430 E0.01963
G1 X121.754 Y82.451 E0.82970
M73 P9 R17
G1 X121.343 Y82.575 E0.01576
G1 X137.198 Y98.430 E0.82326
G1 X136.663 Y98.430 E0.01963
G1 X120.932 Y82.699 E0.81683
G1 X120.522 Y82.823 E0.01576
G1 X136.129 Y98.430 E0.81040
G1 X135.594 Y98.430 E0.01963
G1 X120.111 Y82.947 E0.80397
G1 X119.711 Y83.082 E0.01549
G1 X135.059 Y98.430 E0.79695
G1 X134.525 Y98.430 E0.01963
G1 X119.338 Y83.244 E0.78854
G1 X118.966 Y83.406 E0.01492
G1 X133.990 Y98.430 E0.78013
G1 X133.455 Y98.430 E0.01963
G1 X118.593 Y83.568 E0.77171
G1 X118.220 Y83.730 E0.01492
G1 X132.920 Y98.430 E0.76330
G1 X132.386 Y98.430 E0.01963
G1 X117.847 Y83.892 E0.75489
M73 P10 R17
G1 X117.475 Y84.054 E0.01492
G1 X131.851 Y98.430 E0.74648
M73 P10 R16
G1 X131.316 Y98.430 E0.01963
G1 X117.116 Y84.230 E0.73734
G1 X116.778 Y84.427 E0.01436
G1 X130.781 Y98.430 E0.72713
G1 X130.247 Y98.430 E0.01963
G1 X116.440 Y84.623 E0.71691
G1 X116.102 Y84.820 E0.01436
G1 X129.712 Y98.430 E0.70670
G1 X129.177 Y98.430 E0.01963
G1 X115.764 Y85.017 E0.69648
G1 X115.426 Y85.214 E0.01436
G1 X128.642 Y98.430 E0.68627
G1 X128.108 Y98.430 E0.01963
G1 X115.088 Y85.410 E0.67605
G1 X114.750 Y85.607 E0.01436
G1 X127.541 Y98.398 E0.66418
G1 X126.973 Y98.365 E0.02089
G1 X114.407 Y85.799 E0.65245
G1 X114.065 Y85.992 E0.01442
G1 X126.405 Y98.331 E0.64072
M73 P11 R16
G1 X125.837 Y98.298 E0.02089
G1 X113.723 Y86.184 E0.62900
G1 X113.381 Y86.377 E0.01442
G1 X125.269 Y98.265 E0.61727
G1 X124.620 Y98.150 E0.02420
G1 X113.039 Y86.569 E0.60133
G1 X112.910 Y86.642 E0.00542
G1 X112.669 Y86.734 E0.00949
G1 X123.969 Y98.035 E0.58678
G1 X123.319 Y97.919 E0.02424
G1 X112.282 Y86.882 E0.57309
G1 X111.896 Y87.031 E0.01520
G1 X122.669 Y97.804 E0.55941
G1 X122.503 Y97.775 E0.00618
G1 X121.933 Y97.603 E0.02188
G1 X111.509 Y87.179 E0.54125
G1 X111.123 Y87.327 E0.01520
G1 X121.167 Y97.372 E0.52157
G1 X120.402 Y97.141 E0.02936
G1 X110.721 Y87.460 E0.50268
G1 X110.284 Y87.558 E0.01645
G1 X119.593 Y96.867 E0.48336
G1 X118.647 Y96.456 E0.03786
G1 X109.847 Y87.655 E0.45695
G1 X109.410 Y87.753 E0.01645
G1 X117.701 Y96.045 E0.43054
G1 X117.252 Y95.849 E0.01797
G1 X116.580 Y95.458 E0.02855
G1 X108.972 Y87.850 E0.39503
G1 X108.699 Y87.911 E0.01028
G1 X108.512 Y87.925 E0.00687
G1 X115.301 Y94.714 E0.35248
G1 X114.055 Y94.002 E0.05268
G1 X108.014 Y87.962 E0.31365
M73 P12 R16
G1 X107.516 Y87.998 E0.01834
G1 X112.855 Y93.337 E0.27721
G1 X111.988 Y93.005 E0.03410
G1 X107.018 Y88.035 E0.25806
G1 X106.518 Y88.070 E0.01839
G1 X111.120 Y92.672 E0.23897
G1 X110.851 Y92.569 E0.01059
G1 X110.377 Y92.463 E0.01785
G1 X105.983 Y88.070 E0.22811
G1 X105.449 Y88.070 E0.01963
G1 X109.688 Y92.309 E0.22013
G1 X109.000 Y92.156 E0.02590
G1 X104.914 Y88.070 E0.21215
G1 X104.379 Y88.070 E0.01963
G1 X108.374 Y92.065 E0.20743
G1 X107.797 Y92.022 E0.02124
G1 X103.844 Y88.070 E0.20523
G1 X103.310 Y88.070 E0.01963
G1 X107.220 Y91.980 E0.20303
G1 X106.643 Y91.938 E0.02124
G1 X102.775 Y88.070 E0.20084
G1 X102.240 Y88.070 E0.01963
G1 X106.101 Y91.930 E0.20044
G1 X105.566 Y91.930 E0.01963
G1 X101.706 Y88.070 E0.20044
G1 X101.171 Y88.070 E0.01963
G1 X105.031 Y91.930 E0.20044
G1 X104.496 Y91.930 E0.01963
G1 X100.636 Y88.070 E0.20044
G1 X100.101 Y88.070 E0.01963
G1 X103.962 Y91.930 E0.20044
G1 X103.427 Y91.930 E0.01963
G1 X99.567 Y88.070 E0.20044
G1 X99.032 Y88.070 E0.01963
G1 X102.892 Y91.930 E0.20044
G1 X102.357 Y91.930 E0.01963
G1 X98.497 Y88.070 E0.20044
G1 X97.962 Y88.070 E0.01963
G1 X101.823 Y91.930 E0.20044
G1 X101.288 Y91.930 E0.01963
G1 X97.428 Y88.070 E0.20044
G1 X96.893 Y88.070 E0.01963
G1 X100.753 Y91.930 E0.20044
G1 X100.219 Y91.930 E0.01963
G1 X96.358 Y88.070 E0.20044
G1 X95.824 Y88.070 E0.01963
G1 X99.684 Y91.930 E0.20044
G1 X99.149 Y91.930 E0.01963
G1 X95.289 Y88.070 E0.20044
G1 X94.754 Y88.070 E0.01963
G1 X98.614 Y91.930 E0.20044
G1 X98.080 Y91.930 E0.01963
G1 X94.219 Y88.070 E0.20044
G1 X93.685 Y88.070 E0.01963
G1 X97.545 Y91.930 E0.20044
G1 X97.010 Y91.930 E0.01963
G1 X93.150 Y88.070 E0.20044
G1 X92.615 Y88.070 E0.01963
G1 X96.475 Y91.930 E0.20044
G1 X95.941 Y91.930 E0.01963
G1 X92.080 Y88.070 E0.20044
G1 X91.546 Y88.070 E0.01963
G1 X95.406 Y91.930 E0.20044
G1 X94.871 Y91.930 E0.01963
G1 X91.011 Y88.070 E0.20044
G1 X90.476 Y88.070 E0.01963
G1 X94.336 Y91.930 E0.20044
G1 X93.802 Y91.930 E0.01963
G1 X89.941 Y88.070 E0.20044
M73 P13 R16
G1 X89.407 Y88.070 E0.01963
G1 X93.267 Y91.930 E0.20044
G1 X92.732 Y91.930 E0.01963
G1 X88.872 Y88.070 E0.20044
G1 X88.337 Y88.070 E0.01963
G1 X92.198 Y91.930 E0.20044
G1 X91.663 Y91.930 E0.01963
G1 X87.803 Y88.070 E0.20044
G1 X87.268 Y88.070 E0.01963
G1 X91.128 Y91.930 E0.20044
G1 X90.593 Y91.930 E0.01963
G1 X86.733 Y88.070 E0.20044
G1 X86.198 Y88.070 E0.01963
G1 X90.059 Y91.930 E0.20044
G1 X89.524 Y91.930 E0.01963
G1 X85.664 Y88.070 E0.20044
G1 X85.129 Y88.070 E0.01963
G1 X88.989 Y91.930 E0.20044
G1 X88.454 Y91.930 E0.01963
G1 X84.594 Y88.070 E0.20044
G1 X84.059 Y88.070 E0.01963
G1 X87.920 Y91.930 E0.20044
G1 X87.385 Y91.930 E0.01963
G1 X83.525 Y88.070 E0.20044
G1 X82.990 Y88.070 E0.01963
G1 X86.850 Y91.930 E0.20044
G1 X86.316 Y91.930 E0.01963
G1 X82.455 Y88.070 E0.20044
G1 X81.921 Y88.070 E0.01963
G1 X85.781 Y91.930 E0.20044
G1 X85.246 Y91.930 E0.01963
G1 X81.386 Y88.070 E0.20044
G1 X80.851 Y88.070 E0.01963
G1 X84.711 Y91.930 E0.20044
G1 X84.177 Y91.930 E0.01963
G1 X80.316 Y88.070 E0.20044
G1 X79.782 Y88.070 E0.01963
G1 X83.642 Y91.930 E0.20044
G1 X83.107 Y91.930 E0.01963
G1 X79.247 Y88.070 E0.20044
G1 X78.712 Y88.070 E0.01963
G1 X82.572 Y91.930 E0.20044
G1 X82.038 Y91.930 E0.01963
G1 X78.177 Y88.070 E0.20044
G1 X77.643 Y88.070 E0.01963
G1 X81.503 Y91.930 E0.20044
G1 X80.968 Y91.930 E0.01963
G1 X77.108 Y88.070 E0.20044
G1 X76.573 Y88.070 E0.01963
G1 X80.433 Y91.930 E0.20044
G1 X79.899 Y91.930 E0.01963
G1 X76.038 Y88.070 E0.20044
G1 X75.504 Y88.070 E0.01963
G1 X79.364 Y91.930 E0.20044
G1 X78.829 Y91.930 E0.01963
G1 X74.969 Y88.070 E0.20044
G1 X74.434 Y88.070 E0.01963
G1 X78.295 Y91.930 E0.20044
G1 X77.760 Y91.930 E0.01963
G1 X73.900 Y88.070 E0.20044
G1 X73.357 Y88.062 E0.01991
G1 X77.225 Y91.930 E0.20084
G1 X76.690 Y91.930 E0.01963
G1 X72.780 Y88.020 E0.20303
G1 X72.203 Y87.978 E0.02124
G1 X76.156 Y91.930 E0.20523
G1 X75.621 Y91.930 E0.01963
G1 X71.626 Y87.935 E0.20743
G1 X71.301 Y87.911 E0.01197
G1 X71.000 Y87.844 E0.01130
G1 X75.086 Y91.930 E0.21215
M73 P14 R16
G1 X74.551 Y91.930 E0.01963
G1 X70.312 Y87.691 E0.22013
G1 X69.624 Y87.537 E0.02590
G1 X74.017 Y91.930 E0.22811
G1 X73.482 Y91.930 E0.01963
G1 X68.880 Y87.328 E0.23897
G1 X68.013 Y86.995 E0.03410
G1 X72.982 Y91.965 E0.25805
G1 X72.484 Y92.002 E0.01834
G1 X67.145 Y86.663 E0.27721
G1 X65.946 Y85.998 E0.05037
G1 X71.986 Y92.038 E0.31364
G1 X71.488 Y92.075 E0.01834
G1 X64.700 Y85.287 E0.35248
G1 X63.420 Y84.542 E0.05435
G1 X71.028 Y92.150 E0.39502
G1 X70.591 Y92.247 E0.01645
G1 X62.299 Y83.956 E0.43054
G1 X61.353 Y83.545 E0.03786
G1 X70.153 Y92.345 E0.45695
G1 X69.716 Y92.442 E0.01645
G1 X60.407 Y83.133 E0.48336
G1 X60.179 Y83.034 E0.00916
G1 X59.598 Y82.859 E0.02225
G1 X69.279 Y92.540 E0.50267
G1 X69.149 Y92.569 E0.00490
G1 X68.877 Y92.673 E0.01067
G1 X58.833 Y82.628 E0.52157
G1 X58.067 Y82.397 E0.02936
G1 X68.491 Y92.821 E0.54125
G1 X68.104 Y92.969 E0.01520
G1 X57.331 Y82.196 E0.55940
G1 X56.681 Y82.081 E0.02424
G1 X67.718 Y93.118 E0.57309
G1 X67.331 Y93.266 E0.01520
G1 X56.031 Y81.965 E0.58678
G1 X55.381 Y81.850 E0.02424
G1 X66.961 Y93.431 E0.60133
M73 P15 R16
G1 X66.619 Y93.623 E0.01442
G1 X54.731 Y81.735 E0.61727
G1 X54.163 Y81.702 E0.02089
G1 X66.277 Y93.816 E0.62900
G1 X65.935 Y94.008 E0.01442
G1 X53.595 Y81.669 E0.64072
G1 X53.027 Y81.635 E0.02089
G1 X65.593 Y94.201 E0.65245
G1 X65.250 Y94.393 E0.01442
G1 X52.459 Y81.602 E0.66418
G1 X51.911 Y81.570 E0.02018
G1 X51.892 Y81.570 E0.00067
G1 X64.912 Y94.590 E0.67605
G1 X64.574 Y94.786 E0.01436
M73 P15 R15
G1 X51.358 Y81.570 E0.68626
G1 X50.823 Y81.570 E0.01963
G1 X64.236 Y94.983 E0.69648
