; generated by PrusaSlicer 2.3.0+win64 on 2021-04-08 at 19:45:17 UTC


;
;

;
;
; 

; external perimeters extrusion width = 0.45mm
; perimeters extrusion width = 0.45mm
; infill extrusion width = 0.45mm
; solid infill extrusion width = 0.45mm
; top infill extrusion width = 0.40mm
; first layer extrusion width = 0.42mm

M73 P0 R32
M201 X1250 Y1250 Z400 E5000 ; sets maximum accelerations, mm/sec^2
M203 X180 Y180 Z12 E80 ; sets maximum feedrates, mm/sec
M204 P1250 R1250 T1250 ; sets acceleration (P, T) and retract acceleration (R), mm/sec^2
M205 X8.00 Y8.00 Z2.00 E10.00 ; sets the jerk limits, mm/sec
M205 S0 T0 ; sets the minimum extruding and travel feed rate, mm/sec
M107
;TYPE:Custom
M301 P13.54 I0.98 D46.58
G90 ; use absolute coordinates
M83 ; extruder relative mode
M104 S170 ; set extruder temp for bed leveling
M140 S60 ; set bed temp
M109 R170 ; wait for bed leveling temp
M190 S60 ; wait for bed temp
G28 ; home all without mesh bed level
G29 ; mesh bed leveling 
M104 S235 ; set extruder temp
G92 E0.0
G1 Y-2.0 X179 F2400
G1 Z3 F720
M109 S235 ; wait for extruder temp

; intro line
G1 X170 F1000
G1 Z0.2 F720
G1 X110.0 E8.0 F900
G1 X40.0 E10.0 F700
G92 E0.0

M221 S95 ; set flow
G21 ; set units to millimeters
G90 ; use absolute coordinates
M83 ; use relative distances for extrusion
M900 K0.2 ; Filament gcode
;LAYER_CHANGE
;Z:0.2
;HEIGHT:0.2
;BEFORE_LAYER_CHANGE
G92 E0.0
;0.2


G1 E-3.20000 F4200.000
G1 Z0.200 F9000.000
;AFTER_LAYER_CHANGE
;0.2
G1 Z0.400
G1 X32.067 Y78.163
G1 Z0.200
G1 E3.20000 F2400.000
M204 S800
;TYPE:Skirt
;WIDTH:0.42
G1 F1200.000
G1 X147.504 Y78.123 E4.22684
M73 P1 R31
G1 X148.402 Y78.301 E0.03354
G1 X149.167 Y78.805 E0.03354
G1 X149.684 Y79.562 E0.03354
G1 X149.877 Y80.457 E0.03354
G1 X149.867 Y99.717 E0.70522
G1 X149.675 Y100.458 E0.02805
G1 X149.257 Y101.101 E0.02805
G1 X148.654 Y101.578 E0.02819
G1 X147.933 Y101.837 E0.02805
G1 X32.462 Y101.877 E4.22810
G1 X31.665 Y101.726 E0.02970
G1 X30.965 Y101.315 E0.02970
G1 X30.444 Y100.694 E0.02970
G1 X30.163 Y99.933 E0.02970
G1 X30.132 Y80.295 E0.71908
G1 X30.322 Y79.549 E0.02819
G1 X30.740 Y78.902 E0.02819
G1 X31.343 Y78.424 E0.02819
G1 X32.011 Y78.183 E0.02599
M204 S1250
; printing object body990734 id:0 copy 0
G1 E-2.24000 F4200.000
;WIPE_START
G1 F7200.000
G1 X33.656 Y78.182 E-0.91200
;WIPE_END
G1 E-0.04800 F4200.000
G1 Z0.400 F9000.000
G1 X34.418 Y82.418
G1 Z0.200
G1 E3.20000 F2400.000
M204 S800
;TYPE:Perimeter
G1 F1200.000
G1 X51.886 Y82.418 E0.63959
G1 X54.639 Y82.580 E0.10099
G1 X57.299 Y83.052 E0.09893
G1 X59.886 Y83.832 E0.09893
G1 X62.364 Y84.909 E0.09893
G1 X64.808 Y86.332 E0.10356
G1 X66.728 Y87.412 E0.08066
G1 X68.903 Y88.246 E0.08530
G1 X71.177 Y88.753 E0.08530
G1 X73.430 Y88.918 E0.08272
G1 X106.570 Y88.918 E1.21348
G1 X108.823 Y88.753 E0.08272
G1 X111.097 Y88.246 E0.08530
G1 X113.272 Y87.412 E0.08530
G1 X115.192 Y86.332 E0.08066
G1 X117.636 Y84.909 E0.10356
G1 X120.114 Y83.832 E0.09893
G1 X122.701 Y83.052 E0.09893
G1 X125.361 Y82.580 E0.09893
G1 X128.114 Y82.418 E0.10099
G1 X145.582 Y82.418 E0.63959
G1 X145.582 Y97.582 E0.55522
G1 X128.114 Y97.582 E0.63959
M73 P2 R31
G1 X125.361 Y97.420 E0.10099
G1 X122.701 Y96.948 E0.09893
G1 X120.114 Y96.168 E0.09893
G1 X117.636 Y95.091 E0.09893
G1 X115.192 Y93.668 E0.10356
G1 X113.272 Y92.588 E0.08066
G1 X111.097 Y91.754 E0.08530
G1 X108.823 Y91.247 E0.08530
G1 X106.570 Y91.082 E0.08272
G1 X73.430 Y91.082 E1.21348
G1 X71.177 Y91.247 E0.08272
G1 X68.903 Y91.754 E0.08530
G1 X66.728 Y92.588 E0.08530
G1 X64.808 Y93.668 E0.08066
G1 X62.364 Y95.091 E0.10356
G1 X59.886 Y96.168 E0.09893
G1 X57.299 Y96.948 E0.09893
G1 X54.639 Y97.420 E0.09893
G1 X51.886 Y97.582 E0.10099
G1 X34.418 Y97.582 E0.63959
G1 X34.418 Y82.478 E0.55303
M204 S1250
G1 X34.041 Y82.041 F9000.000
M204 S800
G1 F1200.000
G1 X51.897 Y82.041 E0.65380
G1 X54.683 Y82.205 E0.10220
G1 X57.387 Y82.685 E0.10055
G1 X60.016 Y83.477 E0.10055
G1 X62.535 Y84.572 E0.10055
G1 X64.996 Y86.004 E0.10427
G1 X66.889 Y87.070 E0.07954
G1 X69.012 Y87.884 E0.08327
G1 X71.232 Y88.379 E0.08327
G1 X73.444 Y88.541 E0.08120
G1 X106.556 Y88.541 E1.21246
G1 X108.768 Y88.379 E0.08120
G1 X110.988 Y87.884 E0.08327
G1 X113.111 Y87.070 E0.08327
G1 X115.004 Y86.004 E0.07954
G1 X117.465 Y84.572 E0.10427
G1 X119.984 Y83.477 E0.10055
G1 X122.613 Y82.685 E0.10055
G1 X125.317 Y82.205 E0.10055
G1 X128.103 Y82.041 E0.10220
G1 X145.959 Y82.041 E0.65380
G1 X145.959 Y97.959 E0.58284
G1 X128.103 Y97.959 E0.65380
G1 X125.317 Y97.795 E0.10220
G1 X122.613 Y97.315 E0.10055
G1 X119.984 Y96.523 E0.10055
G1 X117.465 Y95.428 E0.10055
G1 X115.004 Y93.996 E0.10427
G1 X113.111 Y92.930 E0.07954
G1 X110.988 Y92.116 E0.08327
G1 X108.768 Y91.621 E0.08327
G1 X106.556 Y91.459 E0.08120
G1 X73.444 Y91.459 E1.21246
G1 X71.232 Y91.621 E0.08120
G1 X69.012 Y92.116 E0.08327
G1 X66.889 Y92.930 E0.08327
G1 X64.996 Y93.996 E0.07954
G1 X62.535 Y95.428 E0.10427
G1 X60.016 Y96.523 E0.10055
G1 X57.387 Y97.315 E0.10055
G1 X54.683 Y97.795 E0.10055
G1 X51.897 Y97.959 E0.10220
G1 X34.041 Y97.959 E0.65380
G1 X34.041 Y82.101 E0.58064
M204 S1250
G1 X33.664 Y81.664 F9000.000
M204 S800
G1 F1200.000
G1 X51.908 Y81.664 E0.66801
M73 P3 R31
G1 X54.727 Y81.829 E0.10342
G1 X57.475 Y82.317 E0.10217
G1 X60.146 Y83.123 E0.10217
G1 X62.705 Y84.235 E0.10217
G1 X65.183 Y85.677 E0.10498
G1 X67.050 Y86.727 E0.07843
G1 X69.122 Y87.522 E0.08124
G1 X71.287 Y88.005 E0.08124
G1 X73.457 Y88.164 E0.07968
G1 X106.543 Y88.164 E1.21145
G1 X108.713 Y88.005 E0.07968
G1 X110.878 Y87.522 E0.08124
G1 X112.950 Y86.727 E0.08124
G1 X114.817 Y85.677 E0.07843
G1 X117.295 Y84.235 E0.10498
G1 X119.854 Y83.123 E0.10217
G1 X122.525 Y82.317 E0.10217
G1 X125.273 Y81.829 E0.10217
G1 X128.092 Y81.664 E0.10342
G1 X146.336 Y81.664 E0.66801
G1 X146.336 Y98.336 E0.61045
G1 X128.092 Y98.336 E0.66801
G1 X125.273 Y98.171 E0.10342
G1 X122.525 Y97.683 E0.10217
G1 X119.854 Y96.877 E0.10217
G1 X117.295 Y95.765 E0.10217
G1 X114.817 Y94.323 E0.10498
G1 X112.950 Y93.273 E0.07843
G1 X110.878 Y92.478 E0.08124
G1 X108.713 Y91.995 E0.08124
G1 X106.543 Y91.836 E0.07968
G1 X73.457 Y91.836 E1.21145
G1 X71.287 Y91.995 E0.07968
G1 X69.122 Y92.478 E0.08124
G1 X67.050 Y93.273 E0.08124
G1 X65.183 Y94.323 E0.07843
G1 X62.705 Y95.765 E0.10498
G1 X60.146 Y96.877 E0.10217
G1 X57.475 Y97.683 E0.10217
G1 X54.727 Y98.171 E0.10217
G1 X51.908 Y98.336 E0.10342
G1 X33.664 Y98.336 E0.66801
G1 X33.664 Y81.724 E0.60825
M204 S1250
G1 X33.287 Y81.287 F9000.000
M204 S800
G1 F1200.000
G1 X51.919 Y81.287 E0.68222
G1 X54.772 Y81.454 E0.10463
G1 X57.562 Y81.950 E0.10379
G1 X60.276 Y82.768 E0.10379
G1 X62.876 Y83.898 E0.10379
G1 X65.370 Y85.350 E0.10569
G1 X67.211 Y86.385 E0.07732
G1 X69.231 Y87.160 E0.07922
G1 X71.342 Y87.631 E0.07922
G1 X73.471 Y87.787 E0.07816
G1 X106.529 Y87.787 E1.21044
G1 X108.658 Y87.631 E0.07816
G1 X110.769 Y87.160 E0.07922
G1 X112.789 Y86.385 E0.07922
G1 X114.630 Y85.350 E0.07732
G1 X117.124 Y83.898 E0.10569
G1 X119.724 Y82.768 E0.10379
G1 X122.438 Y81.950 E0.10379
G1 X125.228 Y81.454 E0.10379
G1 X128.081 Y81.287 E0.10463
G1 X146.713 Y81.287 E0.68222
G1 X146.713 Y98.713 E0.63807
M73 P4 R31
G1 X128.081 Y98.713 E0.68222
G1 X125.228 Y98.546 E0.10463
M73 P4 R30
G1 X122.438 Y98.050 E0.10379
G1 X119.724 Y97.232 E0.10379
G1 X117.124 Y96.102 E0.10379
G1 X114.630 Y94.650 E0.10569
G1 X112.789 Y93.615 E0.07732
G1 X110.769 Y92.840 E0.07922
G1 X108.658 Y92.369 E0.07922
G1 X106.529 Y92.213 E0.07816
G1 X73.471 Y92.213 E1.21044
G1 X71.342 Y92.369 E0.07816
G1 X69.231 Y92.840 E0.07922
G1 X67.211 Y93.615 E0.07922
G1 X65.370 Y94.650 E0.07732
G1 X62.876 Y96.102 E0.10569
G1 X60.276 Y97.232 E0.10379
G1 X57.562 Y98.050 E0.10379
G1 X54.772 Y98.546 E0.10379
G1 X51.919 Y98.713 E0.10463
G1 X33.287 Y98.713 E0.68222
G1 X33.287 Y81.347 E0.63587
M204 S1250
G1 X32.910 Y80.910 F9000.000
M204 S800
;TYPE:External perimeter
G1 F1200.000
G1 X51.930 Y80.910 E0.69644
G1 X54.816 Y81.079 E0.10585
G1 X57.650 Y81.582 E0.10541
G1 X60.406 Y82.413 E0.10541
G1 X63.046 Y83.561 E0.10541
G1 X65.558 Y85.023 E0.10640
G1 X67.371 Y86.043 E0.07620
G1 X69.340 Y86.798 E0.07719
G1 X71.397 Y87.257 E0.07719
G1 X73.485 Y87.410 E0.07664
G1 X106.515 Y87.410 E1.20943
G1 X108.603 Y87.257 E0.07664
G1 X110.660 Y86.798 E0.07719
G1 X112.629 Y86.043 E0.07719
G1 X114.442 Y85.023 E0.07620
G1 X116.954 Y83.561 E0.10640
G1 X119.594 Y82.413 E0.10541
G1 X122.350 Y81.582 E0.10541
G1 X125.184 Y81.079 E0.10541
G1 X128.070 Y80.910 E0.10585
G1 X147.090 Y80.910 E0.69644
G1 X147.090 Y99.090 E0.66568
G1 X128.070 Y99.090 E0.69644
G1 X125.184 Y98.921 E0.10585
G1 X122.350 Y98.418 E0.10541
G1 X119.594 Y97.587 E0.10541
G1 X116.954 Y96.439 E0.10541
G1 X114.442 Y94.977 E0.10640
G1 X112.629 Y93.957 E0.07620
G1 X110.660 Y93.202 E0.07719
G1 X108.603 Y92.743 E0.07719
G1 X106.515 Y92.590 E0.07664
G1 X73.485 Y92.590 E1.20943
G1 X71.397 Y92.743 E0.07664
G1 X69.340 Y93.202 E0.07719
G1 X67.371 Y93.957 E0.07719
G1 X65.558 Y94.977 E0.07620
G1 X63.046 Y96.439 E0.10640
G1 X60.406 Y97.587 E0.10541
G1 X57.650 Y98.418 E0.10541
G1 X54.816 Y98.921 E0.10541
G1 X51.930 Y99.090 E0.10585
G1 X32.910 Y99.090 E0.69644
M73 P5 R30
G1 X32.910 Y80.970 E0.66348
M204 S1250
G1 X33.297 Y81.011 F9000.000
G1 E-2.24000 F4200.000
;WIPE_START
G1 F7200.000
G1 X34.556 Y80.965 E-0.91200
;WIPE_END
G1 E-0.04800 F4200.000
G1 Z0.400 F9000.000
G1 X145.469 Y83.294
G1 Z0.200
G1 E3.20000 F2400.000
M204 S800
;TYPE:Solid infill
;WIDTH:0.420292
G1 F1200.000
G1 X144.875 Y82.701 E0.03074
G1 X144.342 Y82.701 E0.01956
G1 X145.299 Y83.658 E0.04961
G1 X145.299 Y84.192 E0.01956
G1 X143.808 Y82.701 E0.07726
G1 X143.274 Y82.701 E0.01956
G1 X145.299 Y84.726 E0.10492
G1 X145.299 Y85.259 E0.01956
G1 X142.741 Y82.701 E0.13258
G1 X142.207 Y82.701 E0.01956
G1 X145.299 Y85.793 E0.16023
G1 X145.299 Y86.327 E0.01956
G1 X141.673 Y82.701 E0.18789
G1 X141.140 Y82.701 E0.01956
G1 X145.299 Y86.860 E0.21555
G1 X145.299 Y87.394 E0.01956
G1 X140.606 Y82.701 E0.24321
G1 X140.072 Y82.701 E0.01956
G1 X145.299 Y87.928 E0.27086
G1 X145.299 Y88.461 E0.01956
G1 X139.539 Y82.701 E0.29852
G1 X139.005 Y82.701 E0.01956
G1 X145.299 Y88.995 E0.32618
G1 X145.299 Y89.529 E0.01956
G1 X138.471 Y82.701 E0.35383
G1 X137.937 Y82.701 E0.01956
G1 X145.299 Y90.063 E0.38149
G1 X145.299 Y90.596 E0.01956
G1 X137.404 Y82.701 E0.40915
G1 X136.870 Y82.701 E0.01956
G1 X145.299 Y91.130 E0.43681
G1 X145.299 Y91.664 E0.01956
G1 X136.336 Y82.701 E0.46446
G1 X135.803 Y82.701 E0.01956
G1 X145.299 Y92.197 E0.49212
G1 X145.299 Y92.731 E0.01956
G1 X135.269 Y82.701 E0.51978
G1 X134.735 Y82.701 E0.01956
G1 X145.299 Y93.265 E0.54743
G1 X145.299 Y93.798 E0.01956
G1 X134.202 Y82.701 E0.57509
G1 X133.668 Y82.701 E0.01956
G1 X145.299 Y94.332 E0.60275
G1 X145.299 Y94.866 E0.01956
G1 X133.134 Y82.701 E0.63041
G1 X132.601 Y82.701 E0.01956
G1 X145.299 Y95.399 E0.65806
G1 X145.299 Y95.933 E0.01956
G1 X132.067 Y82.701 E0.68572
G1 X131.533 Y82.701 E0.01956
G1 X145.299 Y96.467 E0.71338
G1 X145.299 Y97.000 E0.01956
G1 X131.000 Y82.701 E0.74104
G1 X130.466 Y82.701 E0.01956
G1 X145.064 Y97.299 E0.75650
M73 P6 R30
G1 X144.530 Y97.299 E0.01956
G1 X129.932 Y82.701 E0.75650
G1 X129.399 Y82.701 E0.01956
G1 X143.996 Y97.299 E0.75650
G1 X143.463 Y97.299 E0.01956
G1 X128.865 Y82.701 E0.75650
G1 X128.331 Y82.701 E0.01956
G1 X142.929 Y97.299 E0.75650
G1 X142.395 Y97.299 E0.01956
G1 X127.815 Y82.719 E0.75557
G1 X127.311 Y82.749 E0.01851
G1 X141.862 Y97.299 E0.75404
G1 X141.328 Y97.299 E0.01956
G1 X126.807 Y82.778 E0.75251
G1 X126.303 Y82.808 E0.01851
G1 X140.794 Y97.299 E0.75097
G1 X140.260 Y97.299 E0.01956
G1 X125.799 Y82.837 E0.74944
G1 X125.305 Y82.877 E0.01816
G1 X139.727 Y97.299 E0.74739
G1 X139.193 Y97.299 E0.01956
G1 X124.852 Y82.957 E0.74322
G1 X124.398 Y83.038 E0.01687
G1 X138.659 Y97.299 E0.73905
G1 X138.126 Y97.299 E0.01956
G1 X123.945 Y83.118 E0.73488
G1 X123.492 Y83.199 E0.01687
G1 X137.592 Y97.299 E0.73071
G1 X137.058 Y97.299 E0.01956
G1 X123.039 Y83.279 E0.72654
G1 X122.603 Y83.377 E0.01637
G1 X136.525 Y97.299 E0.72148
G1 X135.991 Y97.299 E0.01956
G1 X122.193 Y83.501 E0.71507
G1 X121.783 Y83.624 E0.01569
G1 X135.457 Y97.299 E0.70866
G1 X134.924 Y97.299 E0.01956
G1 X121.373 Y83.748 E0.70226
M73 P7 R30
G1 X120.963 Y83.871 E0.01569
G1 X134.390 Y97.299 E0.69585
G1 X133.856 Y97.299 E0.01956
G1 X120.553 Y83.995 E0.68944
G1 X120.149 Y84.125 E0.01554
G1 X133.323 Y97.299 E0.68270
G1 X132.789 Y97.299 E0.01956
G1 X119.777 Y84.287 E0.67433
M73 P7 R29
G1 X119.405 Y84.449 E0.01486
G1 X132.255 Y97.299 E0.66595
G1 X131.722 Y97.299 E0.01956
G1 X119.033 Y84.610 E0.65757
G1 X118.661 Y84.772 E0.01486
G1 X131.188 Y97.299 E0.64919
G1 X130.654 Y97.299 E0.01956
G1 X118.289 Y84.934 E0.64081
G1 X117.917 Y85.095 E0.01486
G1 X130.120 Y97.299 E0.63243
G1 X129.587 Y97.299 E0.01956
G1 X117.565 Y85.277 E0.62299
G1 X117.228 Y85.474 E0.01430
G1 X129.053 Y97.299 E0.61282
G1 X128.519 Y97.299 E0.01956
G1 X116.891 Y85.670 E0.60264
G1 X116.553 Y85.866 E0.01430
G1 X127.977 Y97.290 E0.59203
G1 X127.410 Y97.257 E0.02081
G1 X116.216 Y86.063 E0.58013
G1 X115.879 Y86.259 E0.01430
G1 X126.843 Y97.224 E0.56823
G1 X126.276 Y97.191 E0.02081
G1 X115.541 Y86.455 E0.55633
G1 X115.202 Y86.650 E0.01432
G1 X125.710 Y97.157 E0.54452
G1 X125.394 Y97.139 E0.01158
G1 X125.106 Y97.088 E0.01071
G1 X114.861 Y86.842 E0.53095
G1 X114.519 Y87.034 E0.01436
G1 X124.457 Y96.973 E0.51503
G1 X123.808 Y96.857 E0.02415
G1 X114.178 Y87.227 E0.49910
G1 X113.836 Y87.419 E0.01436
G1 X123.160 Y96.742 E0.48317
G1 X122.766 Y96.672 E0.01463
G1 X122.465 Y96.582 E0.01153
M73 P8 R29
G1 X113.495 Y87.611 E0.46489
G1 X113.122 Y87.772 E0.01487
G1 X121.701 Y96.351 E0.44460
G1 X120.937 Y96.121 E0.02924
G1 X112.736 Y87.920 E0.42500
G1 X112.350 Y88.068 E0.01514
G1 X120.164 Y95.881 E0.40493
G1 X119.220 Y95.471 E0.03771
G1 X111.965 Y88.216 E0.37600
G1 X111.579 Y88.364 E0.01514
G1 X118.276 Y95.061 E0.34708
G1 X117.764 Y94.838 E0.02047
G1 X117.180 Y94.499 E0.02476
G1 X111.193 Y88.511 E0.31027
G1 X110.759 Y88.611 E0.01633
G1 X115.903 Y93.755 E0.26660
G1 X114.658 Y93.043 E0.05257
G1 X110.322 Y88.708 E0.22467
G1 X109.886 Y88.806 E0.01638
G1 X113.437 Y92.357 E0.18404
G1 X112.559 Y92.012 E0.03458
G1 X109.450 Y88.903 E0.16113
G1 X109.014 Y89.000 E0.01638
G1 X111.694 Y91.680 E0.13889
G1 X111.179 Y91.483 E0.02021
G1 X110.900 Y91.421 E0.01045
G1 X108.537 Y89.058 E0.12247
G1 X108.040 Y89.094 E0.01827
G1 X110.213 Y91.267 E0.11263
G1 X109.526 Y91.114 E0.02580
G1 X107.543 Y89.131 E0.10279
G1 X107.045 Y89.167 E0.01827
G1 X108.843 Y90.965 E0.09317
G1 X108.267 Y90.923 E0.02116
G1 X106.546 Y89.201 E0.08921
G1 X106.012 Y89.201 E0.01956
G1 X107.691 Y90.880 E0.08702
G1 X107.115 Y90.838 E0.02116
G1 X105.478 Y89.201 E0.08483
G1 X104.945 Y89.201 E0.01956
G1 X106.543 Y90.799 E0.08280
G1 X106.009 Y90.799 E0.01956
G1 X104.411 Y89.201 E0.08280
G1 X103.877 Y89.201 E0.01956
G1 X105.475 Y90.799 E0.08280
G1 X104.942 Y90.799 E0.01956
G1 X103.344 Y89.201 E0.08280
G1 X102.810 Y89.201 E0.01956
G1 X104.408 Y90.799 E0.08280
G1 X103.874 Y90.799 E0.01956
G1 X102.276 Y89.201 E0.08280
G1 X101.743 Y89.201 E0.01956
G1 X103.340 Y90.799 E0.08280
G1 X102.807 Y90.799 E0.01956
G1 X101.209 Y89.201 E0.08280
G1 X100.675 Y89.201 E0.01956
G1 X102.273 Y90.799 E0.08280
G1 X101.739 Y90.799 E0.01956
G1 X100.142 Y89.201 E0.08280
G1 X99.608 Y89.201 E0.01956
G1 X101.206 Y90.799 E0.08280
G1 X100.672 Y90.799 E0.01956
G1 X99.074 Y89.201 E0.08280
G1 X98.541 Y89.201 E0.01956
G1 X100.138 Y90.799 E0.08280
G1 X99.605 Y90.799 E0.01956
G1 X98.007 Y89.201 E0.08280
G1 X97.473 Y89.201 E0.01956
G1 X99.071 Y90.799 E0.08280
G1 X98.537 Y90.799 E0.01956
G1 X96.940 Y89.201 E0.08280
G1 X96.406 Y89.201 E0.01956
G1 X98.004 Y90.799 E0.08280
G1 X97.470 Y90.799 E0.01956
G1 X95.872 Y89.201 E0.08280
G1 X95.338 Y89.201 E0.01956
G1 X96.936 Y90.799 E0.08280
G1 X96.403 Y90.799 E0.01956
G1 X94.805 Y89.201 E0.08280
G1 X94.271 Y89.201 E0.01956
G1 X95.869 Y90.799 E0.08280
G1 X95.335 Y90.799 E0.01956
G1 X93.737 Y89.201 E0.08280
G1 X93.204 Y89.201 E0.01956
G1 X94.802 Y90.799 E0.08280
G1 X94.268 Y90.799 E0.01956
G1 X92.670 Y89.201 E0.08280
G1 X92.136 Y89.201 E0.01956
G1 X93.734 Y90.799 E0.08280
G1 X93.200 Y90.799 E0.01956
G1 X91.603 Y89.201 E0.08280
G1 X91.069 Y89.201 E0.01956
